;FLAVOR:Marlin
;TIME:1320
;Filament used: 1.36758m
;Layer height: 0.32
;MINX:75.1
;MINY:76.75
;MINZ:0.32
;MAXX:144.9
;MAXY:143.25
;MAXZ:19.08
;TARGET_MACHINE.NAME:Creality Ender-3 V3 KE
;Generated with Cura_SteamEngine 5.8.1
M140 S60
M105
M190 S60
M82 ;absolute extrusion mode
M220 S100 ;Reset Feedrate
M221 S100 ;Reset Flowrate

G28 ;Home

G92 E0 ;Reset Extruder
G1 Z2.0 F3000 ;Move Z Axis up
G1 X-2.0 Y20 Z0.28 F5000.0 ;Move to start position
M109 S218.0
G1 X-2.0 Y145.0 Z0.28 F1500.0 E15 ;Draw the first line
G1 X-1.7 Y145.0 Z0.28 F5000.0 ;Move to side a little
G1 X-1.7 Y20 Z0.28 F1500.0 E30 ;Draw the second line
G92 E0 ;Reset Extruder
G1 E-1 F1800 ;Retract a bit
G1 Z2.0 F3000 ;Move Z Axis up
G1 E0 F1800
G92 E0
G92 E0
G1 F2400 E-0.8
;LAYER_COUNT:59
;LAYER:0
M107
G1 F300 Z0.52
G0 F9000 X78.569 Y91.249 Z0.52
;TYPE:SKIRT
G1 F300 Z0.32
G1 F2400 E0
G1 F6000 X79.307 Y90.613 E0.05185
G1 X80.068 Y90.065 E0.10175
G1 X80.883 Y89.577 E0.1523
G1 X83.481 Y88.174 E0.30943
G1 X85.656 Y86.915 E0.44317
G1 X87.779 Y85.605 E0.57592
G1 X89.905 Y84.209 E0.71127
G1 X91.987 Y82.755 E0.84641
G1 X93.958 Y81.294 E0.97697
G1 X95.997 Y79.693 E1.11493
G1 X96.632 Y79.182 E1.15831
G1 X97.418 Y78.606 E1.21017
G1 X98.252 Y78.102 E1.26202
G1 X99.127 Y77.675 E1.31384
G1 X100.035 Y77.327 E1.36558
G1 X100.972 Y77.058 E1.41746
G1 X101.859 Y76.886 E1.46554
G1 X103.186 Y76.765 E1.53645
G1 X103.825 Y76.75 E1.57047
G1 X105.57 Y76.75 E1.66333
G1 X107.04 Y76.77 E1.74157
G1 X109.648 Y76.77 E1.88035
G1 X110.624 Y76.752 E1.9323
G1 X112.599 Y76.75 E2.0374
G1 X113.494 Y76.763 E2.08504
G1 X114.466 Y76.822 E2.13686
G1 X115.429 Y76.968 E2.18869
G1 X116.376 Y77.199 E2.24057
G1 X117.232 Y77.487 E2.28863
G1 X118.187 Y77.905 E2.3441
G1 X118.979 Y78.339 E2.39216
G1 X119.58 Y78.728 E2.43026
G1 X120.269 Y79.207 E2.47492
G1 X121.14 Y79.831 E2.53194
G1 X123.247 Y81.254 E2.66724
G1 X125.331 Y82.577 E2.7986
G1 X127.531 Y83.889 E2.93492
G1 X129.728 Y85.116 E3.06883
G1 X131.943 Y86.272 E3.20179
G1 X134.224 Y87.381 E3.33676
G1 X136.489 Y88.406 E3.46907
G1 X137.283 Y88.738 E3.51487
G1 X138.308 Y89.184 E3.57435
G1 X139.183 Y89.613 E3.62621
G1 X139.956 Y90.079 E3.67425
G1 X140.799 Y90.697 E3.72987
G1 X141.478 Y91.292 E3.77791
G1 X142.199 Y92.047 E3.83347
G1 X142.784 Y92.782 E3.88346
G1 X143.322 Y93.595 E3.93534
G1 X143.8 Y94.483 E3.98901
G1 X144.184 Y95.377 E4.04079
G1 X144.468 Y96.235 E4.08888
G1 X144.706 Y97.252 E4.14447
G1 X144.834 Y98.146 E4.19253
G1 X144.887 Y98.956 E4.23572
G1 X144.9 Y99.58 E4.26894
G1 X144.899 Y120.165 E5.36439
G1 X144.887 Y120.929 E5.40506
G1 X144.829 Y121.901 E5.45687
G1 X144.683 Y122.865 E5.50876
G1 X144.452 Y123.811 E5.56058
G1 X144.14 Y124.733 E5.61238
G1 X143.747 Y125.624 E5.6642
G1 X143.278 Y126.476 E5.71596
G1 X142.776 Y127.227 E5.76403
G1 X142.119 Y128.041 E5.8197
G1 X141.441 Y128.741 E5.87156
G1 X140.705 Y129.377 E5.92332
G1 X139.974 Y129.907 E5.97137
G1 X139.077 Y130.442 E6.02695
G1 X138.259 Y130.838 E6.07532
G1 X135.296 Y132.12 E6.24712
G1 X133.018 Y133.19 E6.38106
G1 X130.801 Y134.31 E6.51324
G1 X128.566 Y135.519 E6.64846
G1 X126.411 Y136.763 E6.78088
G1 X124.243 Y138.101 E6.91645
G1 X122.149 Y139.473 E7.04968
G1 X119.579 Y141.271 E7.21659
G1 X118.755 Y141.792 E7.26847
G1 X117.921 Y142.222 E7.31841
G1 X116.987 Y142.603 E7.37209
G1 X116.056 Y142.889 E7.42392
G1 X115.103 Y143.091 E7.47576
G1 X114.207 Y143.202 E7.5238
G1 X113.624 Y143.235 E7.55488
G1 X112.967 Y143.25 E7.58985
G1 X111.044 Y143.249 E7.69218
G1 X109.752 Y143.231 E7.76095
G1 X107.142 Y143.231 E7.89984
G1 X106.218 Y143.247 E7.94902
G1 X104.221 Y143.25 E8.05529
G1 X103.326 Y143.237 E8.10293
G1 X102.354 Y143.178 E8.15475
G1 X101.391 Y143.032 E8.20658
G1 X100.444 Y142.801 E8.25845
G1 X99.588 Y142.513 E8.30652
G1 X98.632 Y142.094 E8.36206
G1 X97.767 Y141.615 E8.41468
G1 X96.679 Y140.854 E8.48534
G1 X94.95 Y139.469 E8.60323
G1 X92.935 Y137.936 E8.73797
G1 X90.874 Y136.457 E8.87296
G1 X88.809 Y135.063 E9.00555
G1 X86.692 Y133.718 E9.13902
G1 X84.512 Y132.418 E9.2741
G1 X82.258 Y131.159 E9.41149
G1 X80.882 Y130.42 E9.49461
G1 X80.045 Y129.919 E9.54652
G1 X79.258 Y129.347 E9.59829
G1 X78.523 Y128.707 E9.65016
G1 X77.849 Y128.005 E9.70195
G1 X77.239 Y127.245 E9.75381
G1 X76.699 Y126.436 E9.80557
G1 X76.247 Y125.612 E9.85558
G1 X75.843 Y124.688 E9.90925
G1 X75.534 Y123.765 E9.96105
G1 X75.307 Y122.817 E10.01292
G1 X75.174 Y121.924 E10.06097
G1 X75.115 Y121.077 E10.10615
G1 X75.1 Y120.42 E10.14112
G1 X75.101 Y99.759 E11.24062
G1 X75.113 Y99.055 E11.27809
G1 X75.173 Y98.083 E11.32992
G1 X75.32 Y97.122 E11.38165
G1 X75.551 Y96.175 E11.43353
G1 X75.865 Y95.253 E11.48536
G1 X76.258 Y94.362 E11.53718
G1 X76.693 Y93.57 E11.58527
G1 X77.276 Y92.703 E11.64087
G1 X77.891 Y91.946 E11.69277
G1 X78.569 Y91.249 E11.74452
G0 F9000 X78.831 Y91.552
G1 F6000 X79.541 Y90.938 E11.79447
G1 X80.302 Y90.39 E11.84437
G1 X81.073 Y89.929 E11.89218
G1 X83.671 Y88.526 E12.04931
G1 X85.856 Y87.261 E12.18367
G1 X87.999 Y85.939 E12.31766
G1 X90.125 Y84.543 E12.45301
G1 X92.216 Y83.083 E12.58873
G1 X94.205 Y81.609 E12.72047
G1 X96.244 Y80.008 E12.85843
G1 X96.869 Y79.504 E12.90116
G1 X97.625 Y78.948 E12.9511
G1 X98.428 Y78.461 E13.00107
G1 X99.271 Y78.048 E13.05103
G1 X100.146 Y77.711 E13.10093
G1 X101.048 Y77.451 E13.15088
G1 X101.935 Y77.279 E13.19897
G1 X103.195 Y77.165 E13.26629
G1 X103.834 Y77.15 E13.30031
G1 X105.565 Y77.15 E13.39242
G1 X107.035 Y77.17 E13.47066
G1 X109.655 Y77.17 E13.61009
G1 X110.624 Y77.152 E13.66166
G1 X112.594 Y77.15 E13.7665
G1 X113.47 Y77.162 E13.81312
G1 X114.407 Y77.218 E13.86307
G1 X115.335 Y77.357 E13.91301
G1 X116.248 Y77.578 E13.963
G1 X117.104 Y77.866 E14.01106
G1 X117.995 Y78.256 E14.06282
G1 X118.787 Y78.69 E14.11088
G1 X119.352 Y79.057 E14.14673
G1 X120.036 Y79.532 E14.19105
G1 X120.907 Y80.156 E14.24807
G1 X123.033 Y81.592 E14.38459
G1 X125.126 Y82.921 E14.51653
G1 X127.326 Y84.233 E14.65285
G1 X129.543 Y85.471 E14.78798
G1 X131.768 Y86.632 E14.92153
G1 X134.049 Y87.741 E15.0565
G1 X136.335 Y88.775 E15.19002
G1 X137.124 Y89.105 E15.23553
G1 X138.132 Y89.543 E15.29402
G1 X138.976 Y89.956 E15.34403
G1 X139.749 Y90.422 E15.39206
G1 X140.535 Y90.998 E15.44392
G1 X141.214 Y91.593 E15.49196
G1 X141.886 Y92.297 E15.54375
G1 X142.45 Y93.003 E15.59184
G1 X142.988 Y93.816 E15.64372
G1 X143.433 Y94.641 E15.6936
G1 X143.804 Y95.503 E15.74354
G1 X144.088 Y96.361 E15.79164
G1 X144.31 Y97.309 E15.84345
G1 X144.438 Y98.203 E15.89151
G1 X144.487 Y98.964 E15.93209
G1 X144.5 Y99.58 E15.96488
G1 X144.499 Y120.159 E17.06002
G1 X144.488 Y120.906 E17.09978
G1 X144.433 Y121.842 E17.14967
G1 X144.294 Y122.771 E17.19966
G1 X144.073 Y123.683 E17.2496
G1 X143.774 Y124.572 E17.29951
G1 X143.396 Y125.432 E17.3495
G1 X142.945 Y126.254 E17.3994
G1 X142.443 Y127.005 E17.44747
G1 X141.831 Y127.763 E17.49931
G1 X141.179 Y128.439 E17.54929
G1 X140.47 Y129.053 E17.59921
G1 X139.739 Y129.583 E17.64726
G1 X138.903 Y130.082 E17.69907
G1 X138.1 Y130.471 E17.74655
G1 X135.137 Y131.753 E17.91836
G1 X132.848 Y132.828 E18.05293
G1 X130.611 Y133.958 E18.1863
G1 X128.376 Y135.167 E18.32153
G1 X126.211 Y136.417 E18.45457
G1 X124.024 Y137.766 E18.59131
G1 X121.93 Y139.138 E18.72453
G1 X119.365 Y140.933 E18.89114
G1 X118.572 Y141.436 E18.94111
G1 X117.738 Y141.866 E18.99105
G1 X116.869 Y142.221 E19.041
G1 X115.972 Y142.498 E19.09096
G1 X115.054 Y142.694 E19.14091
G1 X114.158 Y142.805 E19.18896
G1 X113.615 Y142.835 E19.2179
G1 X112.967 Y142.85 E19.25239
G1 X111.05 Y142.849 E19.35441
G1 X109.758 Y142.831 E19.42317
G1 X107.135 Y142.831 E19.56276
G1 X106.215 Y142.848 E19.61172
G1 X104.226 Y142.85 E19.71757
G1 X103.35 Y142.838 E19.76419
G1 X102.413 Y142.782 E19.81415
G1 X101.485 Y142.643 E19.86408
G1 X100.572 Y142.422 E19.91407
G1 X99.716 Y142.134 E19.96213
G1 X98.825 Y141.744 E20.01389
G1 X97.996 Y141.287 E20.06427
G1 X96.908 Y140.526 E20.13492
G1 X95.2 Y139.157 E20.25141
G1 X93.168 Y137.611 E20.38729
G1 X91.107 Y136.132 E20.52228
G1 X89.024 Y134.725 E20.65605
G1 X86.907 Y133.38 E20.78952
G1 X84.717 Y132.074 E20.92522
G1 X82.453 Y130.81 E21.0632
G1 X81.087 Y130.077 E21.1457
G1 X80.28 Y129.595 E21.19572
G1 X79.52 Y129.045 E21.24565
G1 X78.811 Y128.43 E21.2956
G1 X78.16 Y127.754 E21.34554
G1 X77.571 Y127.023 E21.3955
G1 X77.05 Y126.244 E21.44537
G1 X76.598 Y125.42 E21.49538
G1 X76.222 Y124.561 E21.54528
G1 X75.923 Y123.671 E21.59525
G1 X75.703 Y122.758 E21.64522
G1 X75.57 Y121.865 E21.69327
G1 X75.515 Y121.068 E21.73578
G1 X75.5 Y120.42 E21.77028
G1 X75.501 Y99.765 E22.86946
G1 X75.512 Y99.079 E22.90597
G1 X75.569 Y98.143 E22.95587
G1 X75.709 Y97.216 E23.00576
G1 X75.93 Y96.303 E23.05575
G1 X76.231 Y95.414 E23.1057
G1 X76.609 Y94.555 E23.15564
G1 X77.044 Y93.763 E23.20373
G1 X77.587 Y92.955 E23.25554
G1 X78.178 Y92.225 E23.30552
G1 X78.831 Y91.552 E23.35542
G0 F9000 X79.093 Y91.854
G1 F6000 X79.775 Y91.262 E23.40348
G1 X80.507 Y90.733 E23.45154
G1 X81.263 Y90.281 E23.49842
G1 X83.861 Y88.878 E23.65554
G1 X86.056 Y87.607 E23.79052
G1 X88.219 Y86.273 E23.92576
G1 X90.345 Y84.877 E24.06111
G1 X92.445 Y83.411 E24.1974
G1 X94.452 Y81.924 E24.33033
G1 X96.491 Y80.323 E24.46828
G1 X97.106 Y79.826 E24.51036
G1 X97.833 Y79.29 E24.55843
G1 X98.605 Y78.82 E24.60653
G1 X99.415 Y78.421 E24.65458
G1 X100.257 Y78.095 E24.70263
G1 X101.124 Y77.844 E24.75066
G1 X102.011 Y77.672 E24.79874
G1 X103.204 Y77.565 E24.86249
G1 X103.843 Y77.55 E24.8965
G1 X105.56 Y77.55 E24.98787
G1 X107.03 Y77.57 E25.06611
G1 X109.662 Y77.57 E25.20617
G1 X110.624 Y77.552 E25.25738
G1 X112.589 Y77.55 E25.36195
G1 X113.447 Y77.561 E25.40761
G1 X114.349 Y77.614 E25.45569
G1 X115.242 Y77.746 E25.50373
G1 X116.12 Y77.957 E25.55178
G1 X116.976 Y78.245 E25.59985
G1 X117.803 Y78.607 E25.64789
G1 X118.595 Y79.041 E25.69595
G1 X119.124 Y79.385 E25.72953
G1 X119.803 Y79.857 E25.77354
G1 X120.674 Y80.481 E25.83055
G1 X122.819 Y81.93 E25.96831
G1 X124.921 Y83.265 E26.10082
G1 X127.121 Y84.577 E26.23714
G1 X129.358 Y85.826 E26.37348
G1 X131.593 Y86.992 E26.50763
G1 X133.874 Y88.101 E26.6426
G1 X136.181 Y89.144 E26.77734
G1 X136.965 Y89.472 E26.82256
G1 X137.957 Y89.903 E26.88012
G1 X138.769 Y90.299 E26.9282
G1 X139.542 Y90.765 E26.97623
G1 X140.271 Y91.299 E27.02432
G1 X140.95 Y91.894 E27.07236
G1 X141.573 Y92.547 E27.12039
G1 X142.137 Y93.253 E27.16848
G1 X142.636 Y94.006 E27.21655
G1 X143.066 Y94.8 E27.2646
G1 X143.424 Y95.629 E27.31266
G1 X143.708 Y96.487 E27.36075
G1 X143.914 Y97.366 E27.4088
G1 X144.042 Y98.26 E27.45686
G1 X144.087 Y98.973 E27.49488
G1 X144.1 Y99.58 E27.52719
G1 X144.099 Y120.154 E28.62206
G1 X144.089 Y120.883 E28.66085
G1 X144.037 Y121.784 E28.70888
G1 X143.905 Y122.678 E28.75697
G1 X143.694 Y123.556 E28.80503
G1 X143.407 Y124.412 E28.85307
G1 X143.045 Y125.24 E28.90116
G1 X142.612 Y126.032 E28.9492
G1 X142.11 Y126.783 E28.99727
G1 X141.543 Y127.486 E29.04533
G1 X140.917 Y128.137 E29.09339
G1 X140.235 Y128.729 E29.14145
G1 X139.504 Y129.259 E29.1895
G1 X138.729 Y129.722 E29.23755
G1 X137.941 Y130.104 E29.28415
G1 X134.978 Y131.386 E29.45595
G1 X132.678 Y132.466 E29.59117
G1 X130.421 Y133.606 E29.72573
G1 X128.186 Y134.815 E29.86096
G1 X126.011 Y136.071 E29.99462
G1 X123.805 Y137.431 E30.13253
G1 X121.711 Y138.803 E30.26575
G1 X119.15 Y140.596 E30.43212
G1 X118.388 Y141.081 E30.48019
G1 X117.586 Y141.496 E30.52824
G1 X116.75 Y141.839 E30.57633
G1 X115.888 Y142.107 E30.62437
G1 X115.005 Y142.297 E30.67243
G1 X114.109 Y142.408 E30.72048
G1 X113.606 Y142.435 E30.74729
G1 X112.967 Y142.45 E30.7813
G1 X111.056 Y142.449 E30.883
G1 X109.764 Y142.431 E30.95176
G1 X107.128 Y142.431 E31.09204
G1 X106.215 Y142.448 E31.14063
G1 X104.231 Y142.45 E31.24621
G1 X103.373 Y142.439 E31.29188
G1 X102.471 Y142.386 E31.33996
G1 X101.578 Y142.254 E31.388
G1 X100.7 Y142.043 E31.43605
G1 X99.844 Y141.755 E31.48411
G1 X99.017 Y141.393 E31.53216
G1 X98.225 Y140.959 E31.58022
G1 X97.137 Y140.198 E31.65087
G1 X95.45 Y138.845 E31.76596
G1 X93.401 Y137.286 E31.90297
G1 X91.34 Y135.807 E32.03797
G1 X89.239 Y134.387 E32.17292
G1 X87.122 Y133.042 E32.30639
G1 X84.922 Y131.73 E32.4427
G1 X82.642 Y130.457 E32.58167
G1 X81.291 Y129.733 E32.66323
G1 X80.514 Y129.271 E32.71134
G1 X79.782 Y128.743 E32.75937
G1 X79.099 Y128.152 E32.80744
G1 X78.471 Y127.502 E32.85553
G1 X77.903 Y126.8 E32.90359
G1 X77.4 Y126.051 E32.9516
G1 X76.964 Y125.259 E32.99971
G1 X76.601 Y124.433 E33.04773
G1 X76.312 Y123.577 E33.09581
G1 X76.099 Y122.699 E33.14389
G1 X75.966 Y121.806 E33.19193
G1 X75.915 Y121.059 E33.23178
G1 X75.9 Y120.42 E33.26579
G1 X75.901 Y99.771 E34.36465
G1 X75.911 Y99.103 E34.40021
G1 X75.965 Y98.202 E34.44824
G1 X76.098 Y97.309 E34.49629
G1 X76.309 Y96.431 E34.54434
G1 X76.597 Y95.575 E34.5924
G1 X76.96 Y94.748 E34.64046
G1 X77.395 Y93.956 E34.68855
G1 X77.898 Y93.206 E34.73661
G1 X78.465 Y92.503 E34.78467
G1 X79.093 Y91.854 E34.83273
G1 F2400 E34.03273
G1 F300 Z0.52
G0 F9000 X116.785 Y93.65 Z0.52
G1 F300 Z0.32
G1 F2400 E34.83273
G1 F6000 X116.936 Y93.65 E34.84077
G1 X117.965 Y93.648 E34.89553
G1 X118.112 Y93.684 E34.90358
G1 X118.195 Y93.887 E34.91525
G1 X118.195 Y98.25 E35.14743
G1 X116.676 Y98.25 E35.22827
G1 X116.676 Y95.921 E35.35221
G1 X116.702 Y95.836 E35.35694
G1 X116.709 Y95.804 E35.35868
G1 X116.757 Y95.432 E35.37864
G1 X116.759 Y95.416 E35.3795
G1 X116.785 Y94.883 E35.4079
G1 X116.785 Y93.65 E35.47351
G0 F9000 X117.185 Y94.05
G1 F6000 X117.795 Y94.048 E35.50598
G1 X117.795 Y97.85 E35.7083
G1 X117.076 Y97.85 E35.74657
G1 X117.076 Y95.983 E35.84592
G1 X117.085 Y95.953 E35.84759
G1 X117.106 Y95.855 E35.85292
G1 X117.154 Y95.483 E35.87288
G1 X117.158 Y95.435 E35.87545
G1 X117.184 Y94.902 E35.90384
G1 X117.185 Y94.873 E35.90539
G1 X117.185 Y94.05 E35.94919
G1 F2400 E35.14919
G1 F300 Z0.52
G0 F9000 X115.618 Y105.25 Z0.52
G1 F300 Z0.32
G1 F2400 E35.94919
G1 F6000 X119.018 Y105.25 E36.13012
G1 X119.018 Y109.608 E36.36204
G1 X118.858 Y109.693 E36.37168
G1 X118.389 Y109.37 E36.40198
G1 X118.349 Y109.349 E36.40439
G1 X117.933 Y109.186 E36.42816
G1 X117.893 Y109.175 E36.43037
G1 X117.499 Y109.109 E36.45163
G1 X117.455 Y109.106 E36.45398
G1 X116.993 Y109.131 E36.4786
G1 X116.957 Y109.137 E36.48054
G1 X116.623 Y109.218 E36.49883
G1 X116.587 Y109.23 E36.50085
G1 X116.165 Y109.423 E36.52554
G1 X116.132 Y109.442 E36.52757
G1 X115.781 Y109.692 E36.5505
G1 X115.618 Y109.608 E36.56026
G1 X115.618 Y105.25 E36.79218
G0 F9000 X116.018 Y105.65
G1 F6000 X118.618 Y105.65 E36.93054
G1 X118.618 Y109.042 E37.11105
G1 X118.495 Y108.976 E37.11848
G1 X118.079 Y108.813 E37.14226
G1 X117.959 Y108.78 E37.14888
G1 X117.565 Y108.714 E37.17014
G1 X117.434 Y108.707 E37.17712
G1 X116.972 Y108.732 E37.20174
G1 X116.863 Y108.748 E37.2076
G1 X116.529 Y108.829 E37.22589
G1 X116.42 Y108.866 E37.23202
G1 X116.018 Y109.05 E37.25555
G1 X116.018 Y105.65 E37.43648
G0 F9000 X116.418 Y106.05
G1 F6000 X118.218 Y106.05 E37.53227
G1 X118.218 Y108.439 E37.6594
G1 X118.025 Y108.386 E37.67005
G1 X117.631 Y108.32 E37.69131
G1 X117.412 Y108.307 E37.70299
G1 X116.95 Y108.332 E37.72761
G1 X116.768 Y108.359 E37.7374
G1 X116.434 Y108.44 E37.75569
G1 X116.418 Y108.446 E37.7566
G1 X116.418 Y106.05 E37.88411
G0 F9000 X116.818 Y106.45
G1 F6000 X117.818 Y106.45 E37.93732
G1 X117.818 Y107.945 E38.01688
G1 X117.697 Y107.925 E38.02341
G1 X117.39 Y107.908 E38.03977
G1 X116.928 Y107.933 E38.06439
G1 X116.818 Y107.949 E38.07031
G1 X116.818 Y106.45 E38.15008
G0 F9000 X117.218 Y106.85
G1 F6000 X117.418 Y106.85 E38.16072
G1 X117.418 Y107.512 E38.19595
G1 X117.369 Y107.509 E38.19856
G1 X117.218 Y107.517 E38.20661
G1 X117.218 Y106.85 E38.24211
G1 F2400 E37.44211
G1 F300 Z0.52
G0 F9000 X116.828 Y120.855 Z0.52
G1 F300 Z0.32
G1 F2400 E38.24211
G1 F6000 X117.968 Y120.85 E38.30277
G1 X118.114 Y120.891 E38.31084
G1 X118.195 Y121.088 E38.32218
G1 X118.195 Y126.122 E38.59007
G1 X118.156 Y126.269 E38.59816
G1 X117.956 Y126.35 E38.60964
G1 X116.784 Y126.35 E38.67201
G1 X116.768 Y124.671 E38.76137
G1 X116.766 Y124.643 E38.76286
G1 X116.701 Y124.215 E38.7859
G1 X116.697 Y124.196 E38.78693
G1 X116.677 Y124.118 E38.79122
G1 X116.677 Y121.45 E38.9332
G1 X116.638 Y121.331 E38.93986
G1 X116.535 Y121.279 E38.946
G1 X116.461 Y121.038 E38.95942
G1 X116.588 Y120.951 E38.96761
