;FLAVOR:Marlin
;TIME:4872
;Filament used: 10.6095m
;Layer height: 0.32
;MINX:60.013
;MINY:76.72
;MINZ:0.32
;MAXX:159.987
;MAXY:143.276
;MAXZ:19.72
;TARGET_MACHINE.NAME:Creality Ender-3 V3 KE
;Generated with Cura_SteamEngine 5.8.1
M140 S60
M105
M190 S60
M82 ;absolute extrusion mode
M220 S100 ;Reset Feedrate
M221 S100 ;Reset Flowrate

G28 ;Home

G92 E0 ;Reset Extruder
G1 Z2.0 F3000 ;Move Z Axis up
G1 X-2.0 Y20 Z0.28 F5000.0 ;Move to start position
M109 S218.0
G1 X-2.0 Y145.0 Z0.28 F1500.0 E15 ;Draw the first line
G1 X-1.7 Y145.0 Z0.28 F5000.0 ;Move to side a little
G1 X-1.7 Y20 Z0.28 F1500.0 E30 ;Draw the second line
G92 E0 ;Reset Extruder
G1 E-1 F1800 ;Retract a bit
G1 Z2.0 F3000 ;Move Z Axis up
G1 E0 F1800
G92 E0
G92 E0
G1 F2400 E-0.8
;LAYER_COUNT:61
;LAYER:0
M107
G1 F300 Z0.52
G0 F9000 X61.591 Y77.559 Z0.52
;TYPE:SKIRT
G1 F300 Z0.32
G1 F2400 E0
G1 F6000 X62.084 Y77.276 E0.03025
G1 X62.555 Y77.092 E0.05716
G1 X63.162 Y76.96 E0.09022
G1 X63.521 Y76.931 E0.10938
G1 X63.851 Y76.922 E0.12695
G1 X65.612 Y76.921 E0.22067
G1 X66.327 Y76.932 E0.25872
G1 X66.602 Y76.948 E0.27338
G1 X67.288 Y77.014 E0.31005
G1 X68.848 Y77.19 E0.3936
G1 X71.582 Y77.422 E0.53961
G1 X74.277 Y77.572 E0.68325
G1 X78.369 Y77.658 E0.90106
G1 X141.737 Y77.648 E4.27327
G1 X144.521 Y77.608 E4.42144
G1 X147.241 Y77.492 E4.56632
G1 X149.957 Y77.299 E4.71122
G1 X152.792 Y77.016 E4.86283
G1 X153.348 Y76.952 E4.89262
G1 X153.642 Y76.931 E4.9083
G1 X153.973 Y76.922 E4.92592
G1 X155.726 Y76.921 E5.01921
G1 X156.424 Y76.93 E5.05636
G1 X157.022 Y76.989 E5.08834
G1 X157.572 Y77.135 E5.11862
G1 X158.092 Y77.366 E5.1489
G1 X158.568 Y77.674 E5.17907
G1 X158.991 Y78.055 E5.20937
G1 X159.348 Y78.498 E5.23964
G1 X159.631 Y78.99 E5.26985
G1 X159.833 Y79.522 E5.30013
G1 X159.948 Y80.068 E5.32983
G1 X159.977 Y80.428 E5.34905
G1 X159.987 Y80.844 E5.37119
G1 X159.986 Y138.791 E8.45491
G1 X159.976 Y139.518 E8.4936
G1 X159.916 Y140.115 E8.52553
G1 X159.77 Y140.664 E8.55576
G1 X159.539 Y141.184 E8.58604
G1 X159.23 Y141.66 E8.61624
G1 X158.848 Y142.084 E8.64661
G1 X158.457 Y142.404 E8.6735
G1 X157.914 Y142.722 E8.70699
G1 X157.443 Y142.906 E8.7339
G1 X156.835 Y143.038 E8.76701
G1 X156.486 Y143.066 E8.78564
G1 X156.065 Y143.078 E8.80805
G1 X154.387 Y143.078 E8.89735
G1 X153.673 Y143.067 E8.93535
G1 X153.398 Y143.051 E8.95001
G1 X152.711 Y142.985 E8.98674
G1 X151.151 Y142.809 E9.07028
G1 X148.417 Y142.577 E9.2163
G1 X145.722 Y142.427 E9.35994
G1 X141.63 Y142.341 E9.57775
G1 X78.264 Y142.351 E12.94985
G1 X75.48 Y142.391 E13.09801
G1 X72.76 Y142.507 E13.24289
G1 X70.044 Y142.7 E13.38779
G1 X67.209 Y142.983 E13.53941
G1 X66.653 Y143.047 E13.5692
G1 X66.359 Y143.068 E13.58488
G1 X66.028 Y143.077 E13.6025
G1 X64.275 Y143.078 E13.69579
G1 X63.577 Y143.069 E13.73294
G1 X62.979 Y143.01 E13.76492
G1 X62.429 Y142.864 E13.7952
G1 X61.909 Y142.633 E13.82548
G1 X61.433 Y142.325 E13.85565
G1 X61.01 Y141.944 E13.88595
G1 X60.653 Y141.501 E13.91622
G1 X60.37 Y141.009 E13.94643
G1 X60.168 Y140.477 E13.97671
G1 X60.053 Y139.93 E14.00646
G1 X60.024 Y139.559 E14.02626
G1 X60.014 Y139.112 E14.05005
G1 X60.013 Y81.147 E17.13473
G1 X60.022 Y80.482 E17.17012
G1 X60.082 Y79.883 E17.20216
G1 X60.228 Y79.335 E17.23234
G1 X60.458 Y78.816 E17.26255
G1 X60.768 Y78.338 E17.29287
G1 X61.148 Y77.916 E17.32309
G1 X61.591 Y77.559 E17.35336
G0 F9000 X61.793 Y77.904
G1 F6000 X62.23 Y77.649 E17.38029
G1 X62.701 Y77.465 E17.4072
G1 X63.195 Y77.359 E17.43409
G1 X63.532 Y77.331 E17.45208
G1 X63.851 Y77.322 E17.46906
G1 X65.606 Y77.321 E17.56246
G1 X66.304 Y77.331 E17.59961
G1 X66.564 Y77.346 E17.61347
G1 X67.243 Y77.411 E17.64977
G1 X68.814 Y77.589 E17.7339
G1 X71.548 Y77.82 E17.87992
G1 X74.269 Y77.972 E18.02494
G1 X78.361 Y78.058 E18.24275
G1 X141.743 Y78.048 E21.6157
G1 X144.538 Y78.008 E21.76446
G1 X147.258 Y77.892 E21.90934
G1 X149.992 Y77.698 E22.05519
G1 X152.832 Y77.414 E22.20708
G1 X153.377 Y77.351 E22.23628
G1 X153.653 Y77.331 E22.251
G1 X153.973 Y77.322 E22.26804
G1 X155.721 Y77.321 E22.36106
G1 X156.419 Y77.33 E22.39821
G1 X156.923 Y77.377 E22.42515
G1 X157.413 Y77.502 E22.45206
G1 X157.877 Y77.703 E22.47897
G1 X158.303 Y77.974 E22.50584
G1 X158.682 Y78.309 E22.53276
G1 X159.003 Y78.7 E22.55968
G1 X159.258 Y79.136 E22.58656
G1 X159.442 Y79.607 E22.61347
G1 X159.549 Y80.101 E22.64036
G1 X159.577 Y80.438 E22.65836
G1 X159.587 Y80.844 E22.67997
G1 X159.586 Y138.785 E25.76337
G1 X159.576 Y139.512 E25.80206
G1 X159.529 Y140.015 E25.82895
G1 X159.403 Y140.505 E25.85587
G1 X159.202 Y140.969 E25.88278
G1 X158.93 Y141.395 E25.90968
G1 X158.595 Y141.774 E25.9366
G1 X158.204 Y142.094 E25.96349
G1 X157.768 Y142.349 E25.99037
G1 X157.297 Y142.533 E26.01727
G1 X156.802 Y142.639 E26.04421
G1 X156.475 Y142.666 E26.06167
G1 X156.054 Y142.678 E26.08409
G1 X154.393 Y142.678 E26.17248
G1 X153.696 Y142.668 E26.20958
G1 X153.436 Y142.653 E26.22343
G1 X152.756 Y142.588 E26.25979
G1 X151.185 Y142.41 E26.34392
G1 X148.451 Y142.179 E26.48994
G1 X145.73 Y142.027 E26.63496
G1 X141.638 Y141.941 E26.85277
G1 X78.258 Y141.951 E30.22562
G1 X75.463 Y141.991 E30.37437
G1 X72.743 Y142.107 E30.51925
G1 X70.009 Y142.301 E30.66511
G1 X67.169 Y142.585 E30.817
G1 X66.624 Y142.648 E30.84619
G1 X66.348 Y142.668 E30.86092
G1 X66.028 Y142.677 E30.87795
G1 X64.28 Y142.678 E30.97098
G1 X63.582 Y142.669 E31.00812
G1 X63.078 Y142.622 E31.03506
G1 X62.588 Y142.497 E31.06197
G1 X62.124 Y142.296 E31.08888
G1 X61.698 Y142.025 E31.11575
G1 X61.319 Y141.69 E31.14267
G1 X60.998 Y141.299 E31.16959
G1 X60.743 Y140.863 E31.19647
G1 X60.559 Y140.392 E31.22338
G1 X60.452 Y139.898 E31.25028
G1 X60.424 Y139.55 E31.26886
G1 X60.414 Y139.112 E31.29217
G1 X60.413 Y81.152 E34.37658
G1 X60.422 Y80.487 E34.41198
G1 X60.469 Y79.983 E34.43891
G1 X60.595 Y79.494 E34.46579
G1 X60.796 Y79.03 E34.4927
G1 X61.067 Y78.603 E34.51961
G1 X61.402 Y78.225 E34.54649
G1 X61.793 Y77.904 E34.57341
G1 F2400 E33.77341
G1 F300 Z0.52
G0 F9000 X63.813 Y80.721 Z0.52
G1 F300 Z0.32
G1 F2400 E34.57341
G1 F6000 X66.096 Y80.721 E34.6949
G1 X66.106 Y80.751 E34.69658
G1 X66.205 Y80.822 E34.70307
G1 X66.433 Y80.896 E34.71582
G1 X66.495 Y80.906 E34.71917
G1 X66.651 Y80.906 E34.72747
G1 X66.661 Y80.938 E34.72925
G1 X66.761 Y81.01 E34.73581
G1 X66.984 Y81.081 E34.74826
G1 X67.045 Y81.09 E34.75155
G1 X67.205 Y81.09 E34.76006
G1 X67.215 Y81.12 E34.76174
G1 X67.319 Y81.193 E34.7685
G1 X67.569 Y81.267 E34.78238
G1 X67.626 Y81.275 E34.78544
G1 X67.768 Y81.275 E34.793
G1 X67.9 Y81.356 E34.80124
G1 X68.242 Y81.408 E34.81965
G1 X68.252 Y81.409 E34.82018
G1 X68.539 Y81.438 E34.83554
G1 X68.55 Y81.439 E34.83612
G1 X69.023 Y81.46 E34.86132
G1 X69.032 Y81.46 E34.8618
G1 X151.257 Y81.446 E39.2375
G1 X151.27 Y81.446 E39.23819
G1 X151.717 Y81.417 E39.26203
G1 X151.739 Y81.414 E39.26321
G1 X152.17 Y81.337 E39.28651
G1 X152.189 Y81.333 E39.28755
G1 X152.678 Y81.197 E39.31456
G1 X152.781 Y81.127 E39.32118
G1 X152.794 Y81.09 E39.32327
G1 X152.947 Y81.09 E39.33141
G1 X153.004 Y81.082 E39.33448
G1 X153.235 Y81.013 E39.3473
G1 X153.338 Y80.941 E39.35399
G1 X153.35 Y80.906 E39.35596
G1 X153.488 Y80.906 E39.36331
G1 X153.545 Y80.898 E39.36637
G1 X153.79 Y80.825 E39.37997
G1 X153.893 Y80.753 E39.38666
G1 X153.904 Y80.721 E39.38846
G1 X156.187 Y80.721 E39.50995
G1 X156.186 Y139.278 E42.62614
G1 X153.904 Y139.278 E42.74758
G1 X153.893 Y139.245 E42.74943
G1 X153.793 Y139.174 E42.75595
G1 X153.573 Y139.103 E42.76825
G1 X153.512 Y139.093 E42.77154
G1 X153.348 Y139.093 E42.78027
G1 X153.338 Y139.061 E42.78206
G1 X153.238 Y138.989 E42.78861
G1 X153.015 Y138.918 E42.80107
G1 X152.954 Y138.909 E42.80435
G1 X152.794 Y138.909 E42.81286
G1 X152.784 Y138.879 E42.81455
G1 X152.68 Y138.806 E42.82131
G1 X152.43 Y138.732 E42.83518
G1 X152.373 Y138.724 E42.83825
G1 X152.231 Y138.724 E42.8458
G1 X152.099 Y138.643 E42.85404
G1 X151.757 Y138.591 E42.87245
G1 X151.747 Y138.59 E42.87299
G1 X151.46 Y138.561 E42.88834
G1 X151.449 Y138.56 E42.88893
G1 X150.976 Y138.539 E42.91412
G1 X150.967 Y138.539 E42.9146
G1 X68.744 Y138.553 E47.2902
G1 X68.731 Y138.553 E47.29089
G1 X68.284 Y138.582 E47.31473
G1 X68.262 Y138.585 E47.31591
G1 X67.831 Y138.662 E47.33921
G1 X67.812 Y138.666 E47.34024
G1 X67.323 Y138.802 E47.36725
G1 X67.22 Y138.872 E47.37388
G1 X67.207 Y138.909 E47.37597
G1 X67.054 Y138.909 E47.38411
G1 X66.997 Y138.917 E47.38717
G1 X66.766 Y138.986 E47.4
G1 X66.663 Y139.058 E47.40669
G1 X66.651 Y139.093 E47.40866
G1 X66.513 Y139.093 E47.416
G1 X66.456 Y139.101 E47.41907
G1 X66.211 Y139.174 E47.43267
G1 X66.108 Y139.246 E47.43936
G1 X66.097 Y139.278 E47.44116
G1 X63.814 Y139.278 E47.56265
G1 X63.813 Y80.721 E50.67883
G0 F9000 X64.213 Y81.121
G1 F6000 X65.956 Y81.121 E50.77159
G1 X66.082 Y81.203 E50.77959
G1 X66.31 Y81.277 E50.79235
G1 X66.495 Y81.306 E50.80231
G1 X66.508 Y81.306 E50.803
G1 X66.64 Y81.391 E50.81136
G1 X66.863 Y81.462 E50.82381
G1 X67.043 Y81.49 E50.83351
G1 X67.102 Y81.535 E50.83745
G1 X67.206 Y81.576 E50.8434
G1 X67.456 Y81.65 E50.85728
G1 X67.626 Y81.675 E50.86642
G1 X67.634 Y81.675 E50.86685
G1 X67.656 Y81.692 E50.86833
G1 X67.84 Y81.751 E50.87861
G1 X68.182 Y81.803 E50.89702
G1 X68.212 Y81.807 E50.89863
G1 X68.499 Y81.836 E50.91398
G1 X68.532 Y81.838 E50.91574
G1 X69.005 Y81.859 E50.94094
G1 X69.032 Y81.86 E50.94237
G1 X151.257 Y81.846 E55.31808
G1 X151.296 Y81.845 E55.32015
G1 X151.743 Y81.816 E55.34399
G1 X151.81 Y81.808 E55.34758
G1 X152.241 Y81.731 E55.37088
G1 X152.296 Y81.718 E55.37389
G1 X152.785 Y81.582 E55.4009
G1 X152.981 Y81.486 E55.41251
G1 X153.119 Y81.465 E55.41994
G1 X153.35 Y81.396 E55.43277
G1 X153.539 Y81.299 E55.44408
G1 X153.659 Y81.281 E55.45053
G1 X153.904 Y81.208 E55.46414
G1 X154.075 Y81.121 E55.47435
G1 X155.787 Y81.121 E55.56545
G1 X155.786 Y138.878 E58.63906
G1 X154.047 Y138.878 E58.73161
G1 X153.916 Y138.793 E58.73992
G1 X153.696 Y138.722 E58.75222
G1 X153.512 Y138.693 E58.76213
G1 X153.491 Y138.693 E58.76325
G1 X153.359 Y138.608 E58.7716
G1 X153.136 Y138.537 E58.78406
G1 X152.956 Y138.509 E58.79375
G1 X152.897 Y138.464 E58.7977
G1 X152.793 Y138.423 E58.80365
G1 X152.543 Y138.349 E58.81753
G1 X152.373 Y138.324 E58.82667
G1 X152.365 Y138.324 E58.8271
G1 X152.343 Y138.307 E58.82857
G1 X152.159 Y138.248 E58.83886
G1 X151.817 Y138.196 E58.85727
G1 X151.787 Y138.192 E58.85888
G1 X151.5 Y138.163 E58.87423
G1 X151.467 Y138.161 E58.87599
G1 X150.994 Y138.14 E58.90118
G1 X150.967 Y138.139 E58.90262
G1 X68.744 Y138.153 E63.27822
G1 X68.705 Y138.154 E63.28029
G1 X68.258 Y138.183 E63.30413
G1 X68.191 Y138.191 E63.30772
G1 X67.76 Y138.268 E63.33102
G1 X67.705 Y138.281 E63.33403
G1 X67.216 Y138.417 E63.36104
G1 X67.02 Y138.513 E63.37265
G1 X66.882 Y138.534 E63.38008
G1 X66.651 Y138.603 E63.39291
G1 X66.462 Y138.7 E63.40422
G1 X66.342 Y138.718 E63.41068
G1 X66.097 Y138.791 E63.42428
G1 X65.926 Y138.878 E63.43449
G1 X64.214 Y138.878 E63.5256
G1 X64.213 Y81.121 E66.5992
G0 F9000 X64.613 Y81.521
G1 F6000 X65.849 Y81.521 E66.66498
G1 X65.958 Y81.583 E66.67165
G1 X66.186 Y81.657 E66.68441
G1 X66.366 Y81.685 E66.6941
G1 X66.519 Y81.772 E66.70347
G1 X66.742 Y81.843 E66.71592
G1 X66.89 Y81.866 E66.72389
G1 X66.951 Y81.906 E66.72778
G1 X67.092 Y81.96 E66.73581
G1 X67.342 Y82.034 E66.74969
G1 X67.494 Y82.056 E66.75786
G1 X67.505 Y82.063 E66.75855
G1 X67.78 Y82.147 E66.77386
G1 X68.122 Y82.199 E66.79226
G1 X68.171 Y82.205 E66.79489
G1 X68.458 Y82.234 E66.81024
G1 X68.515 Y82.238 E66.81328
G1 X68.988 Y82.259 E66.83848
G1 X69.032 Y82.26 E66.84082
G1 X151.257 Y82.246 E71.21652
G1 X151.322 Y82.244 E71.21999
G1 X151.769 Y82.215 E71.24382
G1 X151.88 Y82.201 E71.24978
G1 X152.311 Y82.124 E71.27308
G1 X152.403 Y82.103 E71.2781
G1 X152.892 Y81.967 E71.30511
G1 X153.129 Y81.863 E71.31888
G1 X153.233 Y81.848 E71.32447
G1 X153.464 Y81.779 E71.3373
G1 X153.685 Y81.677 E71.35026
G1 X153.774 Y81.664 E71.35504
G1 X154.019 Y81.591 E71.36865
G1 X154.171 Y81.521 E71.37755
G1 X155.387 Y81.521 E71.44226
G1 X155.386 Y138.478 E74.4733
G1 X154.155 Y138.478 E74.53881
G1 X154.039 Y138.412 E74.54591
G1 X153.819 Y138.341 E74.55821
G1 X153.63 Y138.311 E74.5684
G1 X153.48 Y138.227 E74.57755
G1 X153.257 Y138.156 E74.59
G1 X153.109 Y138.133 E74.59797
G1 X153.048 Y138.093 E74.60185
G1 X152.907 Y138.039 E74.60989
G1 X152.657 Y137.965 E74.62376
G1 X152.505 Y137.943 E74.63193
G1 X152.494 Y137.936 E74.63263
G1 X152.219 Y137.852 E74.64793
G1 X151.877 Y137.8 E74.66634
G1 X151.828 Y137.794 E74.66897
G1 X151.541 Y137.765 E74.68432
G1 X151.484 Y137.761 E74.68736
G1 X151.011 Y137.74 E74.71255
G1 X150.967 Y137.739 E74.7149
G1 X68.744 Y137.753 E79.09049
G1 X68.679 Y137.755 E79.09395
G1 X68.232 Y137.784 E79.11779
G1 X68.121 Y137.798 E79.12375
G1 X67.69 Y137.875 E79.14704
G1 X67.598 Y137.896 E79.15207
G1 X67.109 Y138.032 E79.17908
G1 X66.872 Y138.136 E79.19285
G1 X66.768 Y138.151 E79.19844
G1 X66.537 Y138.22 E79.21127
G1 X66.316 Y138.322 E79.22422
G1 X66.227 Y138.335 E79.22901
G1 X65.982 Y138.408 E79.24262
G1 X65.83 Y138.478 E79.25152
G1 X64.614 Y138.478 E79.31623
G1 X64.613 Y81.521 E82.34727
G0 F9000 X65.013 Y81.921
G1 F6000 X65.749 Y81.921 E82.38644
G1 X65.835 Y81.964 E82.39155
G1 X66.063 Y82.038 E82.40431
G1 X66.213 Y82.062 E82.41239
G1 X66.397 Y82.153 E82.42332
G1 X66.62 Y82.224 E82.43577
G1 X66.786 Y82.25 E82.44471
G1 X66.979 Y82.343 E82.45611
G1 X67.229 Y82.417 E82.46999
G1 X67.375 Y82.438 E82.47784
G1 X67.417 Y82.461 E82.48039
G1 X67.72 Y82.542 E82.49708
G1 X68.062 Y82.594 E82.51549
G1 X68.131 Y82.603 E82.51919
G1 X68.418 Y82.632 E82.53454
G1 X68.497 Y82.638 E82.53876
G1 X68.97 Y82.659 E82.56395
G1 X69.032 Y82.66 E82.56725
G1 X151.257 Y82.646 E86.94295
G1 X151.348 Y82.643 E86.9478
G1 X151.795 Y82.614 E86.97164
G1 X151.95 Y82.595 E86.97995
G1 X152.381 Y82.518 E87.00325
G1 X152.51 Y82.489 E87.01028
G1 X152.999 Y82.353 E87.03729
G1 X153.267 Y82.243 E87.05271
G1 X153.348 Y82.231 E87.05707
G1 X153.579 Y82.162 E87.0699
G1 X153.818 Y82.058 E87.08377
G1 X153.888 Y82.048 E87.08753
G1 X154.133 Y81.975 E87.10114
G1 X154.257 Y81.921 E87.10833
G1 X154.987 Y81.921 E87.14718
G1 X154.986 Y138.078 E90.13564
G1 X154.254 Y138.078 E90.1746
G1 X154.162 Y138.032 E90.18007
G1 X153.942 Y137.961 E90.19237
G1 X153.782 Y137.936 E90.20099
G1 X153.602 Y137.846 E90.2117
G1 X153.379 Y137.775 E90.22416
G1 X153.213 Y137.749 E90.2331
G1 X153.02 Y137.656 E90.2445
G1 X152.77 Y137.582 E90.25837
G1 X152.624 Y137.561 E90.26622
G1 X152.582 Y137.538 E90.26877
G1 X152.279 Y137.457 E90.28546
G1 X151.937 Y137.405 E90.30387
G1 X151.868 Y137.396 E90.30757
G1 X151.581 Y137.367 E90.32292
G1 X151.502 Y137.361 E90.32714
G1 X151.029 Y137.34 E90.35234
G1 X150.967 Y137.339 E90.35564
G1 X68.744 Y137.353 E94.73123
G1 X68.653 Y137.356 E94.73608
G1 X68.206 Y137.385 E94.75992
G1 X68.051 Y137.404 E94.76823
G1 X67.62 Y137.481 E94.79153
G1 X67.491 Y137.51 E94.79856
G1 X67.002 Y137.646 E94.82557
G1 X66.734 Y137.756 E94.84099
G1 X66.653 Y137.768 E94.84535
G1 X66.422 Y137.837 E94.85818
G1 X66.183 Y137.941 E94.87205
G1 X66.113 Y137.951 E94.87581
G1 X65.868 Y138.024 E94.88941
G1 X65.744 Y138.078 E94.89661
G1 X65.014 Y138.078 E94.93546
G1 X65.013 Y81.921 E97.92392
G0 F9000 X65.413 Y82.321
G1 F6000 X65.659 Y82.321 E97.93701
G1 X65.711 Y82.344 E97.94004
G1 X65.939 Y82.418 E97.9528
G1 X66.052 Y82.436 E97.95889
G1 X66.276 Y82.534 E97.9719
G1 X66.499 Y82.605 E97.98435
G1 X66.625 Y82.625 E97.99114
G1 X66.865 Y82.727 E98.00502
G1 X67.115 Y82.801 E98.01889
G1 X67.272 Y82.824 E98.02734
G1 X67.389 Y82.875 E98.03413
G1 X67.659 Y82.938 E98.04888
G1 X68.001 Y82.99 E98.06729
G1 X68.091 Y83.001 E98.07212
G1 X68.378 Y83.03 E98.08747
G1 X68.479 Y83.037 E98.09286
G1 X68.952 Y83.058 E98.11805
G1 X69.032 Y83.06 E98.12231
G1 X151.257 Y83.046 E102.49801
G1 X151.374 Y83.042 E102.50424
G1 X151.821 Y83.013 E102.52808
G1 X152.021 Y82.989 E102.5388
G1 X152.452 Y82.912 E102.5621
G1 X152.617 Y82.874 E102.57111
G1 X153.106 Y82.738 E102.59812
G1 X153.393 Y82.625 E102.61454
G1 X153.462 Y82.615 E102.61825
G1 X153.693 Y82.546 E102.63108
G1 X153.951 Y82.438 E102.64596
G1 X154.002 Y82.431 E102.6487
G1 X154.247 Y82.358 E102.6623
G1 X154.336 Y82.321 E102.66743
G1 X154.587 Y82.321 E102.68079
G1 X154.586 Y137.678 E105.62668
