;FLAVOR:Marlin
;TIME:303
;Filament used: 0.119131m
;Layer height: 0.2
;MINX:98.444
;MINY:98.864
;MINZ:0.2
;MAXX:121.204
;MAXY:121.103
;MAXZ:7
;TARGET_MACHINE.NAME:Creality Ender-3 V3 KE
;Generated with Cura_SteamEngine 5.8.1
M140 S60
M105
M190 S60
M82 ;absolute extrusion mode
M220 S100 ;Reset Feedrate
M221 S100 ;Reset Flowrate

G28 ;Home

G92 E0 ;Reset Extruder
G1 Z2.0 F3000 ;Move Z Axis up
G1 X-2.0 Y20 Z0.28 F5000.0 ;Move to start position
M109 S218.0
G1 X-2.0 Y145.0 Z0.28 F1500.0 E15 ;Draw the first line
G1 X-1.7 Y145.0 Z0.28 F5000.0 ;Move to side a little
G1 X-1.7 Y20 Z0.28 F1500.0 E30 ;Draw the second line
G92 E0 ;Reset Extruder
G1 E-1 F1800 ;Retract a bit
G1 Z2.0 F3000 ;Move Z Axis up
G1 E0 F1800
G92 E0
G92 E0
G1 F2400 E-0.8
;LAYER_COUNT:36
;LAYER:0
;note -- min layer time used
M107
G1 F300 Z0.4
G0 F9000 X100.254 Y102.303 Z0.4
;TYPE:SKIRT
G1 F300 Z0.2
G1 F2400 E0
G1 F3077.4 X100.465 Y102.105 E0.00962
G1 X100.816 Y101.815 E0.02477
G1 X101.231 Y101.517 E0.04176
G1 X101.842 Y101.17 E0.06513
G1 X102.164 Y101.029 E0.07682
G1 X102.527 Y100.897 E0.08967
G1 X103.043 Y100.741 E0.1076
G1 X103.501 Y100.636 E0.12323
G1 X106.519 Y100.162 E0.22484
G1 X109.183 Y99.673 E0.31492
G1 X110.544 Y99.384 E0.3612
G1 X110.629 Y99.373 E0.36405
G1 X112.477 Y98.983 E0.42687
G1 X113.002 Y98.906 E0.44452
G1 X113.352 Y98.879 E0.45619
G1 X113.908 Y98.864 E0.47469
G1 X114.382 Y98.886 E0.49047
G1 X114.866 Y98.944 E0.50669
G1 X115.382 Y99.038 E0.52413
G1 X115.686 Y99.114 E0.53455
G1 X116.064 Y99.226 E0.54767
G1 X116.364 Y99.329 E0.55822
G1 X116.757 Y99.486 E0.57229
G1 X117.043 Y99.617 E0.58275
G1 X117.527 Y99.877 E0.60103
G1 X117.834 Y100.067 E0.61304
G1 X118.096 Y100.246 E0.62359
G1 X118.413 Y100.485 E0.63679
G1 X118.649 Y100.681 E0.647
G1 X119.066 Y101.077 E0.66612
G1 X119.398 Y101.436 E0.68239
G1 X119.689 Y101.795 E0.69776
G1 X120.032 Y102.279 E0.71749
G1 X120.287 Y102.703 E0.73394
G1 X120.543 Y103.228 E0.75337
G1 X120.747 Y103.724 E0.77121
G1 X120.863 Y104.056 E0.78291
G1 X120.986 Y104.486 E0.79778
G1 X121.076 Y104.89 E0.81155
G1 X121.132 Y105.243 E0.82344
G1 X121.165 Y105.522 E0.83278
G1 X121.195 Y105.92 E0.84606
G1 X121.204 Y106.232 E0.85644
G1 X121.198 Y106.572 E0.86775
G1 X121.178 Y106.885 E0.87818
G1 X121.13 Y107.318 E0.89267
G1 X121.079 Y107.644 E0.90364
G1 X120.992 Y108.062 E0.91784
G1 X120.857 Y108.537 E0.93427
G1 X120.535 Y109.413 E0.96531
G1 X117.785 Y116.117 E1.20632
G1 X117.487 Y116.8 E1.2311
G1 X117.299 Y117.176 E1.24508
G1 X117.155 Y117.434 E1.25491
G1 X116.985 Y117.711 E1.26572
G1 X116.803 Y117.978 E1.27647
G1 X116.542 Y118.324 E1.29088
G1 X116.335 Y118.573 E1.30165
G1 X116.112 Y118.817 E1.31265
G1 X115.888 Y119.04 E1.32316
G1 X115.524 Y119.371 E1.33952
G1 X115.107 Y119.697 E1.35713
G1 X114.657 Y119.998 E1.37513
G1 X114.275 Y120.219 E1.38981
G1 X113.696 Y120.495 E1.41115
G1 X113.36 Y120.631 E1.4232
G1 X113.033 Y120.745 E1.43472
G1 X112.578 Y120.879 E1.4505
G1 X112.121 Y120.98 E1.46606
G1 X111.488 Y121.067 E1.48732
G1 X111.127 Y121.094 E1.49936
G1 X110.818 Y121.103 E1.50964
G1 X110.47 Y121.097 E1.52121
G1 X110.156 Y121.077 E1.53168
G1 X109.734 Y121.03 E1.5458
G1 X109.437 Y120.984 E1.5558
G1 X109.122 Y120.921 E1.56648
G1 X108.808 Y120.842 E1.57725
G1 X108.408 Y120.721 E1.59115
G1 X108.097 Y120.611 E1.60212
G1 X107.798 Y120.488 E1.61288
G1 X107.537 Y120.367 E1.62244
G1 X107.11 Y120.148 E1.63841
G1 X106.677 Y119.887 E1.65522
G1 X106.266 Y119.597 E1.67195
G1 X105.905 Y119.304 E1.68741
G1 X105.617 Y119.036 E1.7005
G1 X105.421 Y118.836 E1.70981
G1 X105.047 Y118.423 E1.72835
G1 X104.752 Y118.048 E1.74421
G1 X104.515 Y117.698 E1.75827
G1 X103.771 Y116.484 E1.80563
G1 X102.284 Y114.138 E1.89801
G1 X100.76 Y111.875 E1.98876
G1 X99.522 Y110.122 E2.06014
G1 X99.354 Y109.859 E2.07052
G1 X99.121 Y109.455 E2.08603
G1 X98.813 Y108.76 E2.11131
G1 X98.681 Y108.347 E2.12573
G1 X98.579 Y107.943 E2.13959
G1 X98.496 Y107.486 E2.15504
G1 X98.444 Y106.869 E2.17563
G1 X98.449 Y106.402 E2.19117
G1 X98.479 Y106.007 E2.20434
G1 X98.552 Y105.483 E2.22194
G1 X98.71 Y104.838 E2.24403
G1 X98.846 Y104.452 E2.25764
G1 X99.034 Y104.022 E2.27325
G1 X99.292 Y103.531 E2.2917
G1 X99.671 Y102.964 E2.31438
G1 X99.971 Y102.603 E2.32999
G1 X100.254 Y102.303 E2.34371
G0 F9000 X100.528 Y102.595
G1 F3077.4 X100.739 Y102.397 E2.35333
G1 X101.051 Y102.139 E2.3668
G1 X101.429 Y101.865 E2.38233
G1 X102.04 Y101.518 E2.4057
G1 X102.302 Y101.405 E2.41519
G1 X102.643 Y101.28 E2.42727
G1 X103.159 Y101.124 E2.4452
G1 X103.59 Y101.026 E2.4599
G1 X106.581 Y100.557 E2.56059
G1 X109.267 Y100.064 E2.65142
G1 X110.596 Y99.781 E2.69662
G1 X110.688 Y99.769 E2.6997
G1 X112.535 Y99.379 E2.76249
G1 X113.06 Y99.302 E2.78014
G1 X113.363 Y99.279 E2.79024
G1 X113.889 Y99.264 E2.80774
G1 X114.363 Y99.286 E2.82353
G1 X114.794 Y99.338 E2.83797
G1 X115.31 Y99.432 E2.85541
G1 X115.573 Y99.498 E2.86443
G1 X115.934 Y99.604 E2.87694
G1 X116.216 Y99.701 E2.88686
G1 X116.59 Y99.85 E2.90025
G1 X116.876 Y99.981 E2.91071
G1 X117.317 Y100.218 E2.92737
G1 X117.608 Y100.397 E2.93873
G1 X117.855 Y100.566 E2.94868
G1 X118.158 Y100.794 E2.9613
G1 X118.381 Y100.978 E2.97091
G1 X118.57 Y101.149 E2.97939
G1 X118.772 Y101.349 E2.98884
G1 X119.104 Y101.708 E3.00511
G1 X119.363 Y102.027 E3.01877
G1 X119.69 Y102.487 E3.03755
G1 X119.928 Y102.879 E3.0528
G1 X120.173 Y103.38 E3.07135
G1 X120.369 Y103.856 E3.08847
G1 X120.485 Y104.188 E3.10017
G1 X120.596 Y104.573 E3.11349
G1 X120.681 Y104.953 E3.12644
G1 X120.735 Y105.29 E3.1378
G1 X120.766 Y105.552 E3.14657
G1 X120.795 Y105.932 E3.15925
G1 X120.804 Y106.226 E3.16903
G1 X120.799 Y106.546 E3.17967
G1 X120.78 Y106.842 E3.18954
G1 X120.735 Y107.256 E3.20339
G1 X120.687 Y107.562 E3.21369
G1 X120.6 Y107.98 E3.22789
G1 X120.472 Y108.427 E3.24336
G1 X120.165 Y109.261 E3.27292
G1 X117.418 Y115.957 E3.51364
G1 X117.12 Y116.64 E3.53842
G1 X116.95 Y116.981 E3.5511
G1 X116.814 Y117.225 E3.56039
G1 X116.654 Y117.486 E3.57057
G1 X116.483 Y117.738 E3.5807
G1 X116.234 Y118.069 E3.59447
G1 X116.04 Y118.303 E3.60458
G1 X115.829 Y118.534 E3.61499
G1 X115.619 Y118.744 E3.62487
G1 X115.255 Y119.075 E3.64123
G1 X114.884 Y119.365 E3.65689
G1 X114.456 Y119.652 E3.67403
G1 X114.102 Y119.858 E3.68766
G1 X113.546 Y120.124 E3.70816
G1 X113.21 Y120.26 E3.72021
G1 X112.919 Y120.362 E3.73047
G1 X112.491 Y120.489 E3.74532
G1 X112.066 Y120.584 E3.7598
G1 X111.458 Y120.668 E3.78022
G1 X111.115 Y120.694 E3.79166
G1 X110.824 Y120.703 E3.80134
G1 X110.496 Y120.698 E3.81225
G1 X110.199 Y120.679 E3.82215
G1 X109.795 Y120.635 E3.83567
G1 X109.515 Y120.592 E3.84509
G1 X109.219 Y120.533 E3.85513
G1 X108.923 Y120.459 E3.86527
G1 X108.541 Y120.344 E3.87854
G1 X108.249 Y120.241 E3.88884
G1 X107.966 Y120.125 E3.89901
G1 X107.72 Y120.011 E3.90803
G1 X107.293 Y119.792 E3.92399
G1 X106.908 Y119.56 E3.93894
G1 X106.497 Y119.27 E3.95567
G1 X106.158 Y118.994 E3.97021
G1 X105.902 Y118.755 E3.98186
G1 X105.717 Y118.567 E3.99063
G1 X105.361 Y118.175 E4.00825
G1 X105.083 Y117.823 E4.02316
G1 X104.856 Y117.489 E4.0366
G1 X104.112 Y116.275 E4.08395
G1 X102.622 Y113.924 E4.17653
G1 X101.087 Y111.644 E4.26795
G1 X99.859 Y109.906 E4.33873
G1 X99.701 Y109.659 E4.34848
G1 X99.468 Y109.255 E4.36399
G1 X99.194 Y108.637 E4.38648
G1 X99.069 Y108.249 E4.40003
G1 X98.967 Y107.845 E4.41389
G1 X98.895 Y107.452 E4.42718
G1 X98.843 Y106.835 E4.44778
G1 X98.848 Y106.432 E4.46118
G1 X98.878 Y106.037 E4.47436
G1 X98.941 Y105.578 E4.48977
G1 X99.099 Y104.933 E4.51185
G1 X99.223 Y104.587 E4.52408
G1 X99.4 Y104.183 E4.53875
G1 X99.625 Y103.753 E4.55489
G1 X100.004 Y103.186 E4.57757
G1 X100.262 Y102.877 E4.59096
G1 X100.528 Y102.595 E4.60385
G1 F2400 E3.80385
G1 F300 Z0.4
;MESH:Buton-1.stl
G0 F9000 X104.624 Y108.453 Z0.4
;TYPE:WALL-OUTER
G1 F300 Z0.2
G1 F2400 E4.60385
G1 F2717.4 X104.293 Y108.461 E4.61633
G1 F2711.4 X103.776 Y108.326 E4.6365
G1 X103.367 Y108.052 E4.65508
G1 F2705.4 X103.055 Y107.732 E4.67199
G1 F2699.5 X102.854 Y107.369 E4.68772
G1 X102.72 Y106.888 E4.70666
G1 F2711.4 X102.716 Y106.471 E4.7224
G1 F2699.5 X102.77 Y106.166 E4.73414
G1 F2705.4 X102.951 Y105.709 E4.75274
G1 F2723.4 X103.21 Y105.384 E4.76836
G1 X103.519 Y105.116 E4.78373
G1 F2747.7 X103.903 Y104.915 E4.79988
G1 F2711.4 X104.17 Y104.862 E4.81015
G1 F2676 X104.469 Y104.818 E4.82171
G1 F2687.7 X104.938 Y104.859 E4.83964
G1 F2735.5 X105.42 Y105.033 E4.85882
G1 F2753.9 X105.855 Y105.361 E4.87907
G1 F2723.4 X106.115 Y105.729 E4.896
G1 F2699.5 X106.276 Y106.078 E4.91057
G1 F2681.9 X106.359 Y106.548 E4.92879
G1 F2687.7 X106.325 Y107.007 E4.94632
G1 F2711.4 X106.204 Y107.403 E4.96195
G1 X105.96 Y107.79 E4.97922
G1 X105.705 Y108.048 E4.99291
G1 F2723.4 X105.309 Y108.316 E5.01088
G1 F2735.5 X104.841 Y108.447 E5.02907
G1 F2723.4 X104.624 Y108.453 E5.03723
G0 F9000 X104.646 Y108.917
G1 F2676 X104.725 Y108.917 E5.04025
G1 X105.06 Y108.865 E5.05322
G1 F2705.4 X105.319 Y108.787 E5.06345
G1 F2711.4 X105.765 Y108.582 E5.08198
G1 F2693.6 X106.067 Y108.336 E5.09678
G1 F2699.5 X106.32 Y108.067 E5.11078
G1 X106.468 Y107.859 E5.12046
G1 X106.639 Y107.537 E5.13429
G1 F2687.7 X106.751 Y107.207 E5.14756
G1 F2670.2 X106.806 Y106.862 E5.16095
G1 F2676 X106.817 Y106.493 E5.17507
G1 F2670.2 X106.743 Y106.072 E5.19145
G1 F2658.7 X106.631 Y105.727 E5.20542
G1 F2681.9 X106.498 Y105.486 E5.21592
G1 F2699.5 X106.305 Y105.203 E5.22891
G1 F2681.9 X106.07 Y104.946 E5.2422
G1 F2699.5 X105.712 Y104.686 E5.25898
G1 F2717.4 X105.473 Y104.564 E5.26909
G1 F2687.7 X105.23 Y104.472 E5.27898
G1 F2664.4 X104.884 Y104.387 E5.29267
G1 X104.442 Y104.358 E5.30969
G1 F2676 X104.073 Y104.413 E5.32396
G1 F2711.4 X103.761 Y104.492 E5.33611
G1 F2705.4 X103.415 Y104.647 E5.35045
G1 F2676 X103.064 Y104.9 E5.367
G1 F2699.5 X102.874 Y105.08 E5.37692
G1 X102.644 Y105.357 E5.39057
G1 F2681.9 X102.434 Y105.756 E5.40778
G1 F2687.7 X102.32 Y106.077 E5.42076
G1 F2693.6 X102.263 Y106.426 E5.43419
G1 F2676 X102.253 Y106.799 E5.44847
G1 F2664.4 X102.328 Y107.215 E5.4647
G1 F2681.9 X102.439 Y107.562 E5.47861
G1 F2705.4 X102.658 Y107.947 E5.49537
G1 F2711.4 X102.886 Y108.217 E5.50871
G1 F2699.5 X103.08 Y108.405 E5.51895
G1 F2681.9 X103.36 Y108.609 E5.53217
G1 F2699.5 X103.667 Y108.761 E5.54516
G1 X104.021 Y108.866 E5.55916
G1 F2676 X104.346 Y108.919 E5.57176
G1 F2681.9 X104.646 Y108.917 E5.58321
G1 F2400 E4.78321
G1 F300 Z0.4
;MESH:Buton-2.stl
G0 F9000 X112.648 Y111.016 Z0.4
G1 F300 Z0.2
G1 F2400 E5.58321
G1 F3077.4 X112.568 Y111.055 E5.58617
G1 X112.248 Y111.095 E5.59689
G1 X111.854 Y111.012 E5.61028
G1 X111.51 Y110.799 E5.62374
G1 X111.211 Y110.388 E5.64065
G1 X111.143 Y109.86 E5.65835
G1 X111.33 Y109.386 E5.6753
G1 X111.61 Y109.062 E5.68954
G1 X112.079 Y108.888 E5.70618
G1 X112.574 Y108.892 E5.72265
G1 X113.039 Y109.16 E5.7405
G1 X113.256 Y109.478 E5.7533
G1 X113.37 Y109.796 E5.76454
G1 X113.363 Y110.199 E5.77794
G1 X113.25 Y110.507 E5.78885
G1 X113.013 Y110.839 E5.80242
G1 X112.648 Y111.016 E5.81591
G1 F2400 E5.01591
G1 F300 Z0.4
G0 F9000 X112.506 Y116.865 Z0.4
G1 F300 Z0.2
G1 F2400 E5.81591
G1 F3077.4 X112.579 Y116.83 E5.81861
G1 X112.98 Y116.554 E5.8348
G1 X113.295 Y116.276 E5.84877
G1 X113.515 Y116.038 E5.85955
G1 X113.717 Y115.783 E5.87037
G1 X113.902 Y115.496 E5.88173
G1 X114.041 Y115.22 E5.89201
G1 X117.133 Y107.687 E6.16284
G1 X117.279 Y107.288 E6.17697
G1 X117.362 Y106.894 E6.19036
G1 X117.404 Y106.56 E6.20156
G1 X117.415 Y106.239 E6.21224
G1 X117.396 Y105.901 E6.2235
G1 X117.336 Y105.504 E6.23686
G1 X117.222 Y105.12 E6.25018
G1 X117.1 Y104.797 E6.26166
G1 X116.919 Y104.439 E6.27501
G1 X116.653 Y104.055 E6.29054
G1 X116.38 Y103.74 E6.30441
G1 X116.142 Y103.522 E6.31514
G1 X115.887 Y103.323 E6.3259
G1 X115.603 Y103.138 E6.33717
G1 X115.327 Y102.998 E6.34747
G1 X115.018 Y102.868 E6.35862
G1 X114.713 Y102.77 E6.36927
G1 X114.399 Y102.706 E6.37993
G1 X113.988 Y102.653 E6.39371
G1 X113.572 Y102.656 E6.40755
G1 X113.258 Y102.69 E6.41805
G1 X112.923 Y102.755 E6.4294
G1 X112.625 Y102.842 E6.43973
G1 X112.302 Y102.968 E6.45126
G1 X112.03 Y103.104 E6.46137
G1 X111.757 Y103.27 E6.472
G1 X111.495 Y103.468 E6.48292
G1 X111.244 Y103.688 E6.49403
G1 X111.025 Y103.926 E6.50478
G1 X110.782 Y104.233 E6.51781
G1 X110.528 Y104.669 E6.53459
G1 X107.341 Y112.448 E6.81419
G1 X107.22 Y112.839 E6.8278
G1 X107.155 Y113.233 E6.84109
G1 X107.129 Y113.564 E6.85213
G1 X107.132 Y113.991 E6.86633
G1 X107.193 Y114.369 E6.87907
G1 X107.265 Y114.685 E6.88985
G1 X107.371 Y114.999 E6.90087
G1 X107.5 Y115.29 E6.91146
G1 X107.667 Y115.591 E6.9229
G1 X107.883 Y115.909 E6.93569
G1 X108.156 Y116.22 E6.94945
G1 X108.463 Y116.504 E6.96336
G1 X108.861 Y116.788 E6.97963
G1 X109.212 Y116.97 E6.99278
G1 X109.521 Y117.096 E7.00388
G1 X109.824 Y117.194 E7.01447
G1 X110.142 Y117.262 E7.02528
G1 X110.473 Y117.304 E7.03638
G1 X110.788 Y117.315 E7.04686
G1 X111.135 Y117.292 E7.05843
G1 X111.537 Y117.236 E7.07193
G1 X111.914 Y117.122 E7.08503
G1 X112.235 Y116.996 E7.0965
G1 X112.506 Y116.865 E7.10651
G0 F9000 X112.517 Y116.387
;TYPE:WALL-INNER
G1 F3077.4 X112.734 Y116.238 E7.11527
G1 X113.015 Y115.99 E7.12773
G1 X113.211 Y115.778 E7.13733
G1 X113.391 Y115.55 E7.147
G1 X113.554 Y115.297 E7.15701
G1 X113.677 Y115.054 E7.16606
G1 X116.76 Y107.542 E7.43614
G1 X116.893 Y107.178 E7.44903
G1 X116.967 Y106.828 E7.46093
G1 X117.005 Y106.528 E7.47098
G1 X117.015 Y106.243 E7.48047
G1 X116.998 Y105.943 E7.49046
G1 X116.945 Y105.592 E7.50227
G1 X116.842 Y105.248 E7.51421
G1 X116.733 Y104.958 E7.52452
G1 X116.575 Y104.645 E7.53618
G1 X116.337 Y104.301 E7.55009
G1 X116.092 Y104.019 E7.56252
G1 X115.884 Y103.828 E7.57191
G1 X115.655 Y103.649 E7.58158
G1 X115.403 Y103.485 E7.59158
G1 X115.159 Y103.361 E7.60068
G1 X114.879 Y103.244 E7.61077
G1 X114.612 Y103.158 E7.6201
G1 X114.333 Y103.101 E7.62957
G1 X113.964 Y103.053 E7.64195
G1 X113.596 Y103.056 E7.65419
G1 X113.318 Y103.086 E7.66349
G1 X113.017 Y103.144 E7.67369
G1 X112.753 Y103.221 E7.68283
G1 X112.464 Y103.334 E7.69315
G1 X112.224 Y103.454 E7.70208
G1 X111.982 Y103.601 E7.7115
G1 X111.748 Y103.778 E7.72125
G1 X111.524 Y103.974 E7.73115
G1 X111.329 Y104.186 E7.74073
G1 X111.114 Y104.459 E7.75229
G1 X110.888 Y104.847 E7.76723
G1 X107.718 Y112.584 E8.04532
G1 X107.61 Y112.931 E8.05741
G1 X107.553 Y113.281 E8.0692
G1 X107.529 Y113.578 E8.07911
G1 X107.532 Y113.957 E8.09172
G1 X107.586 Y114.293 E8.10304
G1 X107.651 Y114.576 E8.1127
G1 X107.744 Y114.854 E8.12245
G1 X107.858 Y115.112 E8.13183
G1 X108.008 Y115.381 E8.14207
G1 X108.2 Y115.664 E8.15345
G1 X108.443 Y115.94 E8.16568
G1 X108.716 Y116.193 E8.17806
G1 X109.07 Y116.446 E8.19253
G1 X109.38 Y116.606 E8.20413
G1 X109.659 Y116.72 E8.21416
G1 X109.928 Y116.807 E8.22356
G1 X110.209 Y116.867 E8.23312
G1 X110.505 Y116.905 E8.24304
G1 X110.782 Y116.915 E8.25226
G1 X111.094 Y116.894 E8.26266
G1 X111.451 Y116.844 E8.27465
G1 X111.783 Y116.744 E8.28618
G1 X112.075 Y116.629 E8.29662
G1 X112.377 Y116.483 E8.30778
G1 X112.517 Y116.387 E8.31342
G0 F9000 X112.53 Y115.884
G1 F3092.9 X112.735 Y115.703 E8.32247
G1 F3077.4 X112.906 Y115.518 E8.33085
G1 X113.065 Y115.317 E8.33938
G1 X113.262 Y115.011 E8.35148
G1 X116.387 Y107.398 E8.62519
G1 X116.508 Y107.067 E8.63692
G1 X116.572 Y106.762 E8.64728
G1 X116.621 Y106.379 E8.66012
G1 X116.6 Y105.984 E8.67328
G1 X116.553 Y105.679 E8.68354
G1 X116.463 Y105.375 E8.69409
G1 X116.367 Y105.119 E8.70318
G1 X116.231 Y104.85 E8.71321
G1 X116.02 Y104.547 E8.72549
G1 X115.742 Y104.224 E8.73966
G1 X115.423 Y103.975 E8.75312
G1 X115.12 Y103.779 E8.76512
G1 X114.74 Y103.62 E8.77882
G1 X114.415 Y103.515 E8.79018
G1 X113.94 Y103.453 E8.80612
G1 X113.507 Y103.457 E8.82052
G1 X113.005 Y103.553 E8.83752
G1 X112.626 Y103.7 E8.85104
G1 X112.207 Y103.933 E8.86698
G1 X112.001 Y104.089 E8.87558
G1 X111.804 Y104.261 E8.88428
G1 X111.634 Y104.446 E8.89263
G1 X111.445 Y104.685 E8.90277
G1 X111.247 Y105.024 E8.91583
G1 X108.095 Y112.719 E9.1924
G1 X108 Y113.023 E9.20299
G1 X107.95 Y113.33 E9.21334
G1 X107.929 Y113.592 E9.22208
G1 X107.932 Y113.923 E9.23309
G1 X107.979 Y114.217 E9.24299
G1 X108.036 Y114.467 E9.25152
G1 X108.158 Y114.826 E9.26413
G1 X108.349 Y115.171 E9.27725
G1 X108.517 Y115.419 E9.28721
G1 X108.73 Y115.661 E9.29794
G1 X108.969 Y115.883 E9.30878
