;FLAVOR:Marlin
;TIME:175
;Filament used: 0.266049m
;Layer height: 0.32
;MINX:90.689
;MINY:96.016
;MINZ:0.32
;MAXX:129.353
;MAXY:124.003
;MAXZ:2.12
;TARGET_MACHINE.NAME:Creality Ender-3 V3 KE
;Generated with Cura_SteamEngine 5.8.1
M140 S60
M105
M190 S60
M82 ;absolute extrusion mode
M220 S100 ;Reset Feedrate
M221 S100 ;Reset Flowrate

G28 ;Home

G92 E0 ;Reset Extruder
G1 Z2.0 F3000 ;Move Z Axis up
G1 X-2.0 Y20 Z0.28 F5000.0 ;Move to start position
M109 S218.0
G1 X-2.0 Y145.0 Z0.28 F1500.0 E15 ;Draw the first line
G1 X-1.7 Y145.0 Z0.28 F5000.0 ;Move to side a little
G1 X-1.7 Y20 Z0.28 F1500.0 E30 ;Draw the second line
G92 E0 ;Reset Extruder
G1 E-1 F1800 ;Retract a bit
G1 Z2.0 F3000 ;Move Z Axis up
G1 E0 F1800
G92 E0
G92 E0
G1 F2400 E-0.8
;LAYER_COUNT:6
;LAYER:0
M107
G1 F300 Z0.52
G0 F9000 X94.624 Y98.898 Z0.52
;TYPE:SKIRT
G1 F300 Z0.32
G1 F2400 E0
G1 F6000 X95.279 Y98.363 E0.04501
G1 X95.513 Y98.188 E0.06056
G1 X95.995 Y97.858 E0.09164
G1 X96.904 Y97.332 E0.14753
G1 X97.194 Y97.182 E0.16491
G1 X97.809 Y96.909 E0.20071
G1 X98.672 Y96.591 E0.24966
G1 X99.344 Y96.39 E0.28698
G1 X100.015 Y96.231 E0.32368
G1 X100.32 Y96.177 E0.34016
G1 X101.207 Y96.062 E0.38776
G1 X102.167 Y96.016 E0.43891
G1 X102.917 Y96.027 E0.47882
G1 X103.215 Y96.045 E0.49471
G1 X103.769 Y96.105 E0.52437
G1 X104.36 Y96.196 E0.55619
G1 X104.797 Y96.284 E0.57991
G1 X105.058 Y96.348 E0.59421
G1 X105.922 Y96.601 E0.64212
G1 X106.734 Y96.892 E0.68802
G1 X108.873 Y97.709 E0.80987
G1 X111.503 Y98.629 E0.95815
G1 X114.09 Y99.454 E1.10265
G1 X116.674 Y100.196 E1.24572
G1 X119.652 Y100.958 E1.4093
G1 X120.463 Y101.154 E1.4537
G1 X121.327 Y101.399 E1.50149
G1 X122.049 Y101.661 E1.54237
G1 X122.802 Y101.986 E1.58601
G1 X123.076 Y102.12 E1.60224
G1 X123.72 Y102.483 E1.64158
G1 X124.445 Y102.953 E1.68756
G1 X124.682 Y103.123 E1.70308
G1 X125.241 Y103.569 E1.74114
G1 X125.849 Y104.121 E1.78484
G1 X126.481 Y104.787 E1.8337
G1 X126.673 Y105.007 E1.84924
G1 X127.028 Y105.453 E1.87958
G1 X127.622 Y106.338 E1.9363
G1 X127.881 Y106.776 E1.96338
G1 X128.26 Y107.515 E2.00757
G1 X128.642 Y108.427 E2.06019
G1 X128.744 Y108.707 E2.07605
G1 X128.912 Y109.259 E2.10676
G1 X129.111 Y110.073 E2.15135
G1 X129.259 Y110.963 E2.19936
G1 X129.349 Y111.971 E2.25322
G1 X129.353 Y112.628 E2.28818
G1 X129.334 Y113.121 E2.31444
G1 X129.291 Y113.63 E2.34162
G1 X129.206 Y114.263 E2.37561
G1 X129.112 Y114.778 E2.40347
G1 X129.049 Y115.051 E2.41838
G1 X128.851 Y115.769 E2.45801
G1 X128.573 Y116.581 E2.50369
G1 X128.245 Y117.359 E2.54862
G1 X127.821 Y118.166 E2.59713
G1 X127.419 Y118.82 E2.63798
G1 X127.093 Y119.286 E2.66825
G1 X126.578 Y119.939 E2.7125
G1 X125.955 Y120.609 E2.76119
G1 X125.418 Y121.121 E2.80068
G1 X124.763 Y121.656 E2.84568
G1 X124.529 Y121.831 E2.86123
G1 X124.047 Y122.161 E2.89232
G1 X123.132 Y122.69 E2.94856
G1 X122.458 Y123.023 E2.98857
G1 X121.512 Y123.385 E3.04247
G1 X120.698 Y123.629 E3.08769
G1 X120.027 Y123.788 E3.12439
G1 X119.722 Y123.842 E3.14087
G1 X118.835 Y123.957 E3.18847
G1 X117.875 Y124.003 E3.23962
G1 X117.125 Y123.992 E3.27954
G1 X116.827 Y123.974 E3.29542
G1 X116.273 Y123.914 E3.32508
G1 X115.682 Y123.823 E3.3569
G1 X115.245 Y123.735 E3.38062
G1 X114.984 Y123.671 E3.39492
G1 X114.12 Y123.418 E3.44283
G1 X113.308 Y123.127 E3.48873
G1 X111.164 Y122.308 E3.61087
G1 X108.539 Y121.39 E3.75886
G1 X105.952 Y120.565 E3.90336
G1 X103.368 Y119.823 E4.04643
G1 X100.39 Y119.061 E4.21001
G1 X99.579 Y118.865 E4.25441
G1 X98.715 Y118.62 E4.3022
G1 X97.993 Y118.358 E4.34308
G1 X97.24 Y118.033 E4.38672
G1 X96.966 Y117.899 E4.40295
G1 X96.322 Y117.536 E4.44229
G1 X95.597 Y117.066 E4.48827
G1 X95.36 Y116.896 E4.5038
G1 X94.82 Y116.466 E4.54053
G1 X94.12 Y115.822 E4.59115
G1 X93.628 Y115.308 E4.62901
G1 X93.189 Y114.79 E4.66515
G1 X93.003 Y114.543 E4.6816
G1 X92.526 Y113.846 E4.72655
G1 X92.162 Y113.245 E4.76394
G1 X91.838 Y112.616 E4.80159
G1 X91.401 Y111.591 E4.86089
G1 X91.295 Y111.303 E4.87722
G1 X91.131 Y110.76 E4.90741
G1 X90.927 Y109.926 E4.9531
G1 X90.77 Y108.914 E5.0076
G1 X90.693 Y108.048 E5.05386
G1 X90.689 Y107.388 E5.08899
G1 X90.72 Y106.721 E5.12452
G1 X90.771 Y106.211 E5.1518
G1 X90.862 Y105.595 E5.18493
G1 X90.93 Y105.237 E5.20432
G1 X90.993 Y104.968 E5.21903
G1 X91.191 Y104.25 E5.25866
G1 X91.469 Y103.438 E5.30434
G1 X91.797 Y102.66 E5.34927
G1 X92.221 Y101.853 E5.39778
G1 X92.623 Y101.199 E5.43863
G1 X92.949 Y100.733 E5.4689
G1 X93.464 Y100.08 E5.51315
G1 X94.087 Y99.41 E5.56184
G1 X94.624 Y98.898 E5.60133
G0 F9000 X94.877 Y99.208
G1 F6000 X95.519 Y98.683 E5.64546
G1 X95.739 Y98.518 E5.66009
G1 X96.221 Y98.188 E5.69118
G1 X97.088 Y97.687 E5.74447
G1 X97.356 Y97.548 E5.76053
G1 X97.971 Y97.275 E5.79634
G1 X98.787 Y96.974 E5.84263
G1 X99.436 Y96.779 E5.87869
G1 X100.085 Y96.625 E5.91418
G1 X100.372 Y96.574 E5.9297
G1 X101.226 Y96.462 E5.97553
G1 X102.186 Y96.416 E6.02668
G1 X102.893 Y96.426 E6.06431
G1 X103.173 Y96.443 E6.07923
G1 X103.708 Y96.5 E6.10787
G1 X104.281 Y96.588 E6.13872
G1 X104.703 Y96.673 E6.16163
G1 X104.946 Y96.732 E6.17493
G1 X105.787 Y96.978 E6.22156
G1 X106.591 Y97.266 E6.26701
G1 X108.735 Y98.085 E6.38915
G1 X111.371 Y99.007 E6.53776
G1 X113.968 Y99.835 E6.68282
G1 X116.575 Y100.584 E6.82716
G1 X119.553 Y101.346 E6.99075
G1 X120.354 Y101.539 E7.03459
G1 X121.218 Y101.784 E7.08238
G1 X121.891 Y102.028 E7.12048
G1 X122.626 Y102.345 E7.16308
G1 X122.9 Y102.479 E7.17931
G1 X123.503 Y102.819 E7.21615
G1 X124.213 Y103.279 E7.26117
G1 X124.433 Y103.436 E7.27555
G1 X124.972 Y103.865 E7.31221
G1 X125.559 Y104.397 E7.35437
G1 X126.18 Y105.05 E7.40232
G1 X126.361 Y105.257 E7.41696
G1 X126.696 Y105.676 E7.4455
G1 X127.29 Y106.561 E7.50223
G1 X127.525 Y106.959 E7.52682
G1 X127.891 Y107.67 E7.56938
G1 X128.266 Y108.565 E7.62102
G1 X128.361 Y108.824 E7.6357
G1 X128.523 Y109.354 E7.66519
G1 X128.722 Y110.168 E7.70979
G1 X128.864 Y111.028 E7.75617
G1 X128.949 Y111.974 E7.80672
G1 X128.953 Y112.613 E7.84072
G1 X128.935 Y113.087 E7.86596
G1 X128.892 Y113.596 E7.89315
G1 X128.812 Y114.192 E7.92515
G1 X128.722 Y114.688 E7.95198
G1 X128.663 Y114.945 E7.96601
G1 X128.465 Y115.663 E8.00564
G1 X128.204 Y116.426 E8.04856
G1 X127.891 Y117.173 E8.09166
G1 X127.48 Y117.957 E8.13877
G1 X127.091 Y118.591 E8.17835
G1 X126.779 Y119.038 E8.20736
G1 X126.264 Y119.691 E8.25162
G1 X125.679 Y120.32 E8.29733
G1 X125.165 Y120.811 E8.33516
G1 X124.523 Y121.336 E8.37929
G1 X124.303 Y121.501 E8.39392
G1 X123.821 Y121.831 E8.42501
G1 X122.954 Y122.332 E8.4783
G1 X122.315 Y122.649 E8.51626
G1 X121.369 Y123.011 E8.57016
G1 X120.606 Y123.24 E8.61255
G1 X119.957 Y123.394 E8.64805
G1 X119.67 Y123.445 E8.66356
G1 X118.816 Y123.557 E8.7094
G1 X117.856 Y123.603 E8.76054
G1 X117.149 Y123.593 E8.79817
G1 X116.869 Y123.576 E8.8131
G1 X116.334 Y123.519 E8.84173
G1 X115.761 Y123.431 E8.87258
G1 X115.339 Y123.346 E8.89549
G1 X115.096 Y123.287 E8.9088
G1 X114.255 Y123.041 E8.95543
G1 X113.451 Y122.753 E9.00087
G1 X111.307 Y121.934 E9.12301
G1 X108.671 Y121.012 E9.27162
G1 X106.074 Y120.184 E9.41668
G1 X103.467 Y119.435 E9.56103
G1 X100.489 Y118.673 E9.72461
G1 X99.688 Y118.48 E9.76846
G1 X98.824 Y118.235 E9.81625
G1 X98.151 Y117.991 E9.85434
G1 X97.416 Y117.674 E9.89694
G1 X97.142 Y117.54 E9.91317
G1 X96.539 Y117.2 E9.95001
G1 X95.829 Y116.74 E9.99503
G1 X95.609 Y116.583 E10.00941
G1 X95.069 Y116.153 E10.04615
G1 X94.409 Y115.545 E10.0939
G1 X93.933 Y115.049 E10.13049
G1 X93.508 Y114.548 E10.16545
G1 X93.333 Y114.317 E10.18087
G1 X92.868 Y113.639 E10.22462
G1 X92.518 Y113.062 E10.26054
G1 X92.194 Y112.433 E10.29819
G1 X91.776 Y111.452 E10.35494
G1 X91.678 Y111.187 E10.36997
G1 X91.52 Y110.665 E10.39899
G1 X91.316 Y109.831 E10.44469
G1 X91.168 Y108.878 E10.49601
G1 X91.093 Y108.046 E10.54046
G1 X91.089 Y107.406 E10.57452
G1 X91.118 Y106.761 E10.60888
G1 X91.167 Y106.269 E10.63519
G1 X91.255 Y105.67 E10.66741
G1 X91.32 Y105.328 E10.68594
G1 X91.379 Y105.074 E10.69981
G1 X91.577 Y104.356 E10.73945
G1 X91.838 Y103.593 E10.78236
G1 X92.151 Y102.846 E10.82547
G1 X92.562 Y102.062 E10.87257
G1 X92.951 Y101.428 E10.91216
G1 X93.263 Y100.981 E10.94116
G1 X93.778 Y100.328 E10.98542
G1 X94.363 Y99.699 E11.03113
G1 X94.877 Y99.208 E11.06896
G1 F2400 E10.26896
G1 F300 Z0.52
;MESH:Case-Clip.stl
G0 F9000 X102.783 Y115.379 Z0.52
;TYPE:WALL-OUTER
G1 F300 Z0.32
G1 F2400 E11.06896
G1 F6030.2 X102.924 Y115.368 E11.07645
G1 F6000 X103.423 Y115.307 E11.1032
G1 X103.703 Y115.263 E11.11829
G1 X104.201 Y115.153 E11.14543
G1 X104.467 Y115.084 E11.16005
G1 X104.942 Y114.928 E11.18666
G1 X105.45 Y114.721 E11.21585
G1 X105.922 Y114.491 E11.24379
G1 X106.36 Y114.24 E11.27066
G1 X106.592 Y114.093 E11.28527
G1 X107.022 Y113.789 E11.3133
G1 X107.408 Y113.469 E11.33998
G1 X107.794 Y113.11 E11.36803
G1 X108.026 Y112.859 E11.38622
G1 X108.161 Y112.599 E11.40181
G1 X108.196 Y112.314 E11.41709
G1 X108.123 Y112.031 E11.43264
G1 X107.954 Y111.794 E11.44813
G1 X107.711 Y111.63 E11.46373
G1 X103.118 Y110.171 E11.72019
G1 X102.727 Y110.256 E11.74149
G1 X102.393 Y110.296 E11.75939
G1 X102.041 Y110.287 E11.77812
G1 X101.669 Y110.236 E11.79811
G1 X101.206 Y110.083 E11.82406
G1 X100.845 Y109.884 E11.84599
G1 X100.58 Y109.699 E11.86319
G1 X100.288 Y109.432 E11.88425
G1 X100.041 Y109.114 E11.90568
G1 X99.872 Y108.825 E11.92349
G1 X99.749 Y108.545 E11.93977
G1 X99.631 Y108.164 E11.96099
G1 X99.58 Y107.766 E11.98234
G1 X99.585 Y107.398 E12.00193
G1 X99.625 Y107.096 E12.01814
G1 X99.705 Y106.78 E12.03549
G1 X99.817 Y106.485 E12.05228
G1 X99.97 Y106.191 E12.06992
G1 X100.149 Y105.931 E12.08672
G1 X100.371 Y105.682 E12.10447
G1 X100.664 Y105.424 E12.12524
G1 X101.017 Y105.21 E12.14721
G1 X101.31 Y105.077 E12.16434
G1 X101.688 Y104.956 E12.18546
G1 X102.156 Y104.892 E12.21059
G1 X102.666 Y104.919 E12.23777
G1 X103.052 Y105.011 E12.25889
G1 X103.376 Y105.13 E12.27726
G1 X103.635 Y105.263 E12.29275
G1 X103.908 Y105.442 E12.31012
G1 X104.141 Y105.646 E12.3266
G1 X104.43 Y105.967 E12.34959
G1 X108.964 Y107.405 E12.60272
G1 X109.172 Y107.441 E12.61395
G1 X109.475 Y107.398 E12.63024
G1 X109.657 Y107.307 E12.64107
G1 X109.921 Y107.043 E12.66093
G1 X110.019 Y106.629 E12.68357
G1 X109.92 Y106.041 E12.71531
G1 X109.791 Y105.51 E12.74439
G1 X109.634 Y105.009 E12.77232
G1 X109.545 Y104.77 E12.7859
G1 X109.35 Y104.305 E12.81273
G1 X109.112 Y103.845 E12.84029
G1 X108.842 Y103.387 E12.86859
G1 X108.7 Y103.175 E12.88216
G1 X108.39 Y102.752 E12.91007
G1 X108.051 Y102.351 E12.93802
G1 X107.685 Y101.977 E12.96586
G1 X107.302 Y101.629 E12.9934
G1 X106.886 Y101.302 E13.02156
G1 X106.456 Y101.014 E13.0491
G1 X106.004 Y100.744 E13.07712
G1 X105.535 Y100.51 E13.10501
G1 X105.304 Y100.41 E13.11841
G1 X104.807 Y100.218 E13.14676
G1 X104.316 Y100.07 E13.17405
G1 X103.798 Y99.948 E13.20237
G1 X103.496 Y99.89 E13.21874
G1 X103.024 Y99.832 E13.24404
G1 X102.765 Y99.812 E13.25787
G1 X102.245 Y99.797 E13.28555
G1 X101.723 Y99.816 E13.31335
G1 X101.176 Y99.875 E13.34263
G1 X100.815 Y99.937 E13.36212
G1 X100.429 Y100.019 E13.38312
G1 X99.925 Y100.159 E13.41096
G1 X99.418 Y100.339 E13.43959
G1 X98.949 Y100.542 E13.46678
G1 X98.702 Y100.666 E13.48149
G1 X98.264 Y100.908 E13.50812
G1 X97.821 Y101.198 E13.5363
G1 X97.609 Y101.348 E13.55012
G1 X97.199 Y101.676 E13.57806
G1 X96.821 Y102.027 E13.60551
G1 X96.454 Y102.41 E13.63374
G1 X96.154 Y102.772 E13.65876
G1 X95.814 Y103.229 E13.68907
G1 X95.534 Y103.677 E13.71718
G1 X95.288 Y104.137 E13.74494
G1 X95.073 Y104.613 E13.77274
G1 X94.886 Y105.105 E13.80075
G1 X94.73 Y105.623 E13.82954
G1 X94.621 Y106.112 E13.8562
G1 X94.567 Y106.418 E13.87274
G1 X94.512 Y106.892 E13.89813
G1 X94.492 Y107.147 E13.91174
G1 X94.477 Y107.673 E13.93974
G1 X94.484 Y107.944 E13.95417
G1 X94.527 Y108.449 E13.98114
G1 X94.606 Y108.993 E14.0104
G1 X94.707 Y109.48 E14.03686
G1 X94.858 Y110.012 E14.06629
G1 X95.136 Y110.732 E14.10736
G1 X95.378 Y111.231 E14.13688
G1 X95.619 Y111.663 E14.1632
G1 X95.9 Y112.084 E14.19014
G1 X96.214 Y112.5 E14.21788
G1 X96.375 Y112.696 E14.23137
G1 X96.731 Y113.083 E14.25936
G1 X97.113 Y113.441 E14.28722
G1 X97.52 Y113.778 E14.31534
G1 X97.728 Y113.932 E14.32911
G1 X98.158 Y114.221 E14.35668
G1 X98.616 Y114.483 E14.38476
G1 X98.843 Y114.599 E14.39833
G1 X99.324 Y114.814 E14.42636
G1 X99.816 Y114.998 E14.45432
G1 X100.314 Y115.146 E14.48196
G1 X100.831 Y115.259 E14.51013
G1 X101.082 Y115.302 E14.52368
G1 X101.606 Y115.368 E14.55178
G1 X102.128 Y115.395 E14.5796
G1 X102.667 Y115.388 E14.60829
G1 F6030.2 X102.783 Y115.379 E14.61445
G0 F9000 X102.756 Y114.986
;TYPE:WALL-INNER
G1 F6000 X102.763 Y114.986 E14.61482
G1 X103.629 Y114.87 E14.66132
G1 X104.354 Y114.7 E14.70094
G1 X104.804 Y114.552 E14.72615
G1 X105.287 Y114.355 E14.75391
G1 X105.735 Y114.137 E14.78043
G1 X106.18 Y113.881 E14.80775
G1 X106.396 Y113.743 E14.82139
G1 X106.778 Y113.471 E14.84634
G1 X107.144 Y113.169 E14.87159
G1 X107.511 Y112.827 E14.89829
G1 X107.696 Y112.627 E14.91279
G1 X107.773 Y112.479 E14.92167
G1 X107.79 Y112.341 E14.92907
G1 X107.67 Y112.085 E14.94411
G1 X107.535 Y111.994 E14.95278
G1 X103.098 Y110.585 E15.20052
G1 X102.755 Y110.656 E15.21916
G1 X102.418 Y110.695 E15.23721
G1 X102.036 Y110.688 E15.25754
G1 X101.583 Y110.627 E15.28187
G1 X101.069 Y110.459 E15.31064
G1 X100.642 Y110.23 E15.33643
G1 X100.303 Y109.988 E15.35859
G1 X99.994 Y109.703 E15.38096
G1 X99.717 Y109.348 E15.40493
G1 X99.522 Y109.018 E15.42532
G1 X99.376 Y108.689 E15.44448
G1 X99.231 Y108.206 E15.47132
G1 X99.182 Y107.8 E15.49308
G1 X99.185 Y107.378 E15.51554
G1 X99.234 Y107.013 E15.53513
G1 X99.317 Y106.679 E15.55345
G1 X99.453 Y106.321 E15.57383
G1 X99.613 Y106.009 E15.59249
G1 X99.837 Y105.681 E15.61362
G1 X100.07 Y105.416 E15.6324
G1 X100.405 Y105.119 E15.65623
G1 X100.809 Y104.867 E15.68157
G1 X101.149 Y104.71 E15.7015
G1 X101.6 Y104.566 E15.72669
G1 X102.117 Y104.494 E15.75447
G1 X102.714 Y104.518 E15.78626
G1 X103.131 Y104.617 E15.80907
G1 X103.515 Y104.753 E15.83075
G1 X103.839 Y104.919 E15.85012
G1 X104.155 Y105.127 E15.87026
G1 X104.449 Y105.388 E15.89118
G1 X104.664 Y105.621 E15.90805
G1 X109.14 Y107.042 E16.15796
G1 X109.42 Y106.978 E16.17325
G1 X109.555 Y106.843 E16.18341
G1 X109.611 Y106.616 E16.19585
G1 X109.528 Y106.122 E16.22251
G1 X109.405 Y105.617 E16.25017
G1 X109.256 Y105.138 E16.27686
G1 X108.988 Y104.475 E16.31492
G1 X108.762 Y104.039 E16.34105
G1 X108.504 Y103.601 E16.3681
G1 X108.352 Y103.377 E16.38251
G1 X108.076 Y103 E16.40737
G1 X107.755 Y102.621 E16.4338
G1 X107.407 Y102.265 E16.4603
G1 X107.044 Y101.935 E16.4864
G1 X106.65 Y101.626 E16.51305
G1 X106.242 Y101.352 E16.5392
G1 X105.812 Y101.095 E16.56586
G1 X105.274 Y100.827 E16.59785
G1 X104.677 Y100.596 E16.63191
G1 X104.212 Y100.456 E16.65776
G1 X103.714 Y100.339 E16.68498
G1 X103.434 Y100.286 E16.70014
G1 X102.872 Y100.216 E16.73028
G1 X102.247 Y100.197 E16.76356
G1 X101.752 Y100.215 E16.78992
G1 X101.232 Y100.271 E16.81775
G1 X100.624 Y100.38 E16.85062
G1 X100.045 Y100.541 E16.8826
G1 X99.564 Y100.711 E16.90975
G1 X99.118 Y100.904 E16.93561
G1 X98.888 Y101.02 E16.94932
G1 X98.47 Y101.25 E16.97471
G1 X97.85 Y101.668 E17.0145
G1 X97.46 Y101.979 E17.04105
G1 X97.102 Y102.313 E17.0671
G1 X96.752 Y102.676 E17.09394
G1 X96.469 Y103.019 E17.1176
G1 X96.144 Y103.455 E17.14654
G1 X95.88 Y103.877 E17.17303
G1 X95.647 Y104.313 E17.19934
G1 X95.443 Y104.767 E17.22583
G1 X95.265 Y105.234 E17.25242
G1 X95.117 Y105.725 E17.27971
G1 X95.013 Y106.19 E17.30507
G1 X94.963 Y106.476 E17.32052
G1 X94.895 Y107.056 E17.3516
G1 X94.873 Y107.796 E17.39099
G1 X94.925 Y108.403 E17.42341
G1 X95 Y108.923 E17.45137
G1 X95.095 Y109.384 E17.47642
G1 X95.238 Y109.885 E17.50415
G1 X95.503 Y110.572 E17.54333
G1 X95.733 Y111.046 E17.57137
G1 X95.961 Y111.454 E17.59624
G1 X96.226 Y111.852 E17.62169
G1 X96.608 Y112.357 E17.65538
G1 X97.015 Y112.801 E17.68744
G1 X97.377 Y113.141 E17.71387
G1 X97.845 Y113.529 E17.74622
G1 X98.37 Y113.881 E17.77985
G1 X98.914 Y114.193 E17.81323
G1 X99.476 Y114.444 E17.84598
G1 X99.943 Y114.618 E17.8725
G1 X100.414 Y114.758 E17.89865
G1 X101.009 Y114.89 E17.93109
G1 X101.642 Y114.969 E17.96503
G1 X102.136 Y114.995 E17.99136
G1 X102.756 Y114.986 E18.02436
G0 F9000 X102.728 Y114.58
