;FLAVOR:Marlin
;TIME:1637
;Filament used: 2.1047m
;Layer height: 0.2
;MINX:58.552
;MINY:74.393
;MINZ:0.2
;MAXX:161.442
;MAXY:145.547
;MAXZ:10.2
;TARGET_MACHINE.NAME:Creality Ender-3 V3 KE
;Generated with Cura_SteamEngine 5.8.1
M140 S60
M105
M190 S60
M82 ;absolute extrusion mode
M220 S100 ;Reset Feedrate
M221 S100 ;Reset Flowrate

G28 ;Home

G92 E0 ;Reset Extruder
G1 Z2.0 F3000 ;Move Z Axis up
G1 X-2.0 Y20 Z0.28 F5000.0 ;Move to start position
M109 S218.0
G1 X-2.0 Y145.0 Z0.28 F1500.0 E15 ;Draw the first line
G1 X-1.7 Y145.0 Z0.28 F5000.0 ;Move to side a little
G1 X-1.7 Y20 Z0.28 F1500.0 E30 ;Draw the second line
G92 E0 ;Reset Extruder
G1 E-1 F1800 ;Retract a bit
G1 Z2.0 F3000 ;Move Z Axis up
G1 E0 F1800
G92 E0
G92 E0
G1 F2400 E-0.8
;LAYER_COUNT:50
;LAYER:0
M107
G1 F300 Z0.4
G0 F9000 X89.43 Y84.654 Z0.4
;TYPE:SKIRT
G1 F300 Z0.2
G1 F2400 E0
G1 F6000 X90.139 Y84.006 E0.03195
G1 X90.611 Y83.634 E0.05194
G1 X91.231 Y83.182 E0.07745
G1 X92.011 Y82.658 E0.10871
G1 X94.162 Y81.303 E0.19326
G1 X96.242 Y79.91 E0.27652
G1 X97.566 Y78.964 E0.33065
G1 X97.712 Y78.869 E0.33644
G1 X99.184 Y77.821 E0.39654
G1 X99.992 Y77.282 E0.42884
G1 X100.809 Y76.796 E0.46046
G1 X101.252 Y76.558 E0.47719
G1 X101.731 Y76.317 E0.49502
G1 X102.256 Y76.068 E0.51435
G1 X102.929 Y75.778 E0.53872
G1 X103.473 Y75.565 E0.55815
G1 X104.158 Y75.323 E0.58232
G1 X104.625 Y75.176 E0.5986
G1 X105.553 Y74.928 E0.63055
G1 X106.329 Y74.757 E0.65698
G1 X107.15 Y74.61 E0.68472
G1 X107.756 Y74.525 E0.70507
G1 X108.447 Y74.452 E0.72818
G1 X108.885 Y74.42 E0.74279
G1 X109.691 Y74.393 E0.76961
G1 X110.499 Y74.397 E0.79649
G1 X111.594 Y74.457 E0.83296
G1 X112.297 Y74.532 E0.85648
G1 X113.274 Y74.681 E0.88935
G1 X114.03 Y74.831 E0.91498
G1 X114.83 Y75.024 E0.94235
G1 X115.391 Y75.182 E0.96174
G1 X116.291 Y75.479 E0.99326
G1 X116.904 Y75.712 E1.01507
G1 X117.413 Y75.923 E1.0334
G1 X118.13 Y76.249 E1.05959
G1 X118.888 Y76.63 E1.08781
G1 X119.299 Y76.852 E1.10335
G1 X119.927 Y77.221 E1.12757
G1 X120.627 Y77.686 E1.15553
G1 X122.354 Y78.923 E1.22618
G1 X124.446 Y80.377 E1.31092
G1 X126.584 Y81.776 E1.3959
G1 X128.341 Y82.867 E1.46468
G1 X129.149 Y83.423 E1.49731
G1 X129.986 Y84.124 E1.53362
G1 X130.587 Y84.704 E1.5614
G1 X130.866 Y84.994 E1.57478
G1 X131.338 Y85.518 E1.59824
G1 X133.033 Y87.522 E1.68554
G1 X134.702 Y89.389 E1.76883
G1 X136.421 Y91.207 E1.85205
G1 X138.215 Y92.998 E1.93636
G1 X140.057 Y94.738 E2.02064
G1 X141.945 Y96.421 E2.10476
G1 X143.423 Y97.672 E2.16916
G1 X144.542 Y98.601 E2.21754
G1 X145.261 Y99.258 E2.24993
G1 X145.92 Y99.976 E2.28235
G1 X146.489 Y100.716 E2.31339
G1 X146.936 Y101.402 E2.34063
G1 X147.373 Y102.138 E2.36909
G1 X159.137 Y122.514 E3.15164
G1 X159.64 Y123.419 E3.18608
G1 X160.105 Y124.358 E3.22093
G1 X160.305 Y124.822 E3.23774
G1 X160.669 Y125.784 E3.27195
G1 X160.777 Y126.12 E3.28369
G1 X161.021 Y127.008 E3.31432
G1 X161.123 Y127.456 E3.3296
G1 X161.304 Y128.477 E3.36409
G1 X161.348 Y128.832 E3.37598
G1 X161.424 Y129.666 E3.40384
G1 X161.44 Y130.028 E3.41589
G1 X161.442 Y131.02 E3.44888
G1 X161.423 Y131.443 E3.46297
G1 X161.344 Y132.346 E3.49311
G1 X161.298 Y132.695 E3.50482
G1 X161.114 Y133.716 E3.53933
G1 X160.999 Y134.206 E3.55607
G1 X160.743 Y135.118 E3.58757
G1 X160.64 Y135.426 E3.59838
G1 X160.319 Y136.279 E3.62869
G1 X160.166 Y136.633 E3.64152
G1 X159.746 Y137.504 E3.67368
G1 X159.552 Y137.862 E3.68722
G1 X159.054 Y138.693 E3.71944
G1 X158.865 Y138.978 E3.73082
G1 X158.328 Y139.717 E3.7612
G1 X158.053 Y140.063 E3.7759
G1 X157.413 Y140.797 E3.80829
G1 X157.169 Y141.052 E3.82003
G1 X156.505 Y141.691 E3.85068
G1 X156.22 Y141.94 E3.86327
G1 X155.454 Y142.554 E3.89592
G1 X155.112 Y142.803 E3.90999
G1 X154.283 Y143.35 E3.94302
G1 X153.993 Y143.522 E3.95424
G1 X153.16 Y143.968 E3.98566
G1 X152.752 Y144.164 E4.00072
G1 X151.79 Y144.571 E4.03546
G1 X151.419 Y144.708 E4.04861
G1 X150.449 Y145.017 E4.08247
G1 X149.38 Y145.262 E4.11895
G1 X148.905 Y145.348 E4.13501
G1 X147.895 Y145.483 E4.1689
G1 X147.583 Y145.509 E4.17931
G1 X146.703 Y145.547 E4.20861
G1 X146.228 Y145.547 E4.22441
G1 X145.318 Y145.507 E4.2547
G1 X145.028 Y145.482 E4.26438
G1 X144 Y145.344 E4.29888
G1 X143.353 Y145.221 E4.32079
G1 X142.088 Y144.946 E4.36384
G1 X139.42 Y144.34 E4.45484
G1 X137.429 Y143.922 E4.52251
G1 X136.054 Y143.651 E4.56912
G1 X134.079 Y143.29 E4.6359
G1 X132.124 Y142.961 E4.70183
G1 X129.818 Y142.608 E4.77942
G1 X127.956 Y142.354 E4.84193
G1 X125.883 Y142.101 E4.91139
G1 X123.825 Y141.878 E4.98024
G1 X121.585 Y141.672 E5.05506
G1 X119.776 Y141.534 E5.1154
G1 X116.901 Y141.361 E5.21119
G1 X114.7 Y141.269 E5.28446
G1 X112.696 Y141.216 E5.35114
G1 X110.671 Y141.191 E5.4185
G1 X108.603 Y141.196 E5.48728
G1 X106.627 Y141.23 E5.55301
G1 X104.624 Y141.293 E5.61966
G1 X103.096 Y141.358 E5.67053
G1 X101.14 Y141.471 E5.7357
G1 X98.867 Y141.635 E5.81149
G1 X96.808 Y141.814 E5.88023
G1 X94.797 Y142.022 E5.94748
G1 X92.711 Y142.268 E6.01734
G1 X90.773 Y142.525 E6.08236
G1 X88.706 Y142.83 E6.15185
G1 X85.795 Y143.311 E6.24999
G1 X83.864 Y143.666 E6.31529
G1 X82.003 Y144.036 E6.3784
G1 X80.516 Y144.352 E6.42896
G1 X77.651 Y145.003 E6.52668
G1 X76.501 Y145.251 E6.56581
G1 X75.528 Y145.415 E6.59863
G1 X75.097 Y145.467 E6.61307
G1 X74.135 Y145.538 E6.64515
G1 X73.799 Y145.547 E6.65633
G1 X72.848 Y145.532 E6.68796
G1 X72.378 Y145.504 E6.70362
G1 X71.443 Y145.405 E6.73489
G1 X71.176 Y145.365 E6.74387
G1 X70.159 Y145.163 E6.77836
G1 X69.676 Y145.042 E6.79492
G1 X68.729 Y144.76 E6.82779
G1 X68.428 Y144.654 E6.8384
G1 X67.636 Y144.34 E6.86674
G1 X67.299 Y144.19 E6.879
G1 X66.411 Y143.745 E6.91204
G1 X66.018 Y143.525 E6.92702
G1 X65.21 Y143.023 E6.95866
G1 X64.871 Y142.791 E6.97232
G1 X64.067 Y142.181 E7.00589
G1 X63.77 Y141.931 E7.0188
G1 X63.14 Y141.357 E7.04715
G1 X62.866 Y141.086 E7.05997
G1 X62.212 Y140.382 E7.09193
G1 X61.996 Y140.125 E7.10309
G1 X61.417 Y139.374 E7.13463
G1 X61.117 Y138.947 E7.15199
G1 X60.557 Y138.059 E7.18691
G1 X60.406 Y137.792 E7.19711
G1 X60.025 Y137.048 E7.22491
G1 X59.864 Y136.699 E7.23769
G1 X59.497 Y135.806 E7.2698
G1 X59.355 Y135.404 E7.28398
G1 X59.071 Y134.479 E7.31617
G1 X58.981 Y134.128 E7.32822
G1 X58.788 Y133.22 E7.35909
G1 X58.721 Y132.808 E7.37298
G1 X58.605 Y131.848 E7.40514
G1 X58.579 Y131.491 E7.41705
G1 X58.552 Y130.551 E7.44832
G1 X58.56 Y130.094 E7.46352
G1 X58.627 Y129.059 E7.49802
G1 X58.672 Y128.662 E7.51131
G1 X58.831 Y127.646 E7.54551
G1 X59.085 Y126.608 E7.58106
G1 X59.234 Y126.104 E7.59854
G1 X59.548 Y125.187 E7.63077
G1 X59.67 Y124.88 E7.64176
G1 X60.244 Y123.657 E7.6867
G1 X60.956 Y122.359 E7.73594
G1 X72.725 Y101.971 E8.51891
G1 X73.097 Y101.354 E8.54288
G1 X73.637 Y100.544 E8.57526
G1 X74.246 Y99.784 E8.60765
G1 X74.893 Y99.108 E8.63877
G1 X75.49 Y98.574 E8.66541
G1 X76.755 Y97.525 E8.72007
G1 X78.716 Y95.841 E8.80604
G1 X80.582 Y94.141 E8.89
G1 X82.352 Y92.437 E8.97172
G1 X84.157 Y90.597 E9.05745
G1 X85.841 Y88.781 E9.13982
G1 X87.531 Y86.852 E9.22512
G1 X88.77 Y85.371 E9.28934
G1 X89.43 Y84.654 E9.32175
G0 F9000 X89.7 Y84.949
G1 F6000 X90.387 Y84.32 E9.35273
G1 X90.847 Y83.957 E9.37222
G1 X91.454 Y83.514 E9.39722
G1 X92.224 Y82.996 E9.42808
G1 X94.385 Y81.635 E9.51303
G1 X96.465 Y80.242 E9.59629
G1 X97.784 Y79.299 E9.65022
G1 X97.944 Y79.195 E9.65656
G1 X99.406 Y78.154 E9.71626
G1 X100.197 Y77.626 E9.74789
G1 X100.999 Y77.148 E9.77894
G1 X101.432 Y76.915 E9.7953
G1 X101.903 Y76.678 E9.81283
G1 X102.415 Y76.435 E9.83168
G1 X103.075 Y76.15 E9.85559
G1 X103.606 Y75.942 E9.87456
G1 X104.278 Y75.705 E9.89826
G1 X104.745 Y75.558 E9.91454
G1 X105.639 Y75.319 E9.94532
G1 X106.4 Y75.151 E9.97124
G1 X107.206 Y75.006 E9.99848
G1 X107.798 Y74.923 E10.01836
G1 X108.476 Y74.851 E10.04104
G1 X108.899 Y74.82 E10.05515
G1 X109.689 Y74.793 E10.08144
G1 X110.477 Y74.796 E10.10765
G1 X111.552 Y74.855 E10.14346
G1 X112.255 Y74.93 E10.16697
G1 X113.196 Y75.073 E10.19863
G1 X113.936 Y75.22 E10.22372
G1 X114.722 Y75.409 E10.25061
G1 X115.266 Y75.562 E10.26941
G1 X116.149 Y75.853 E10.30033
G1 X116.751 Y76.082 E10.32175
G1 X117.248 Y76.287 E10.33963
G1 X117.95 Y76.606 E10.36528
G1 X118.698 Y76.982 E10.39312
G1 X119.096 Y77.197 E10.40817
G1 X119.724 Y77.566 E10.43239
G1 X120.394 Y78.011 E10.45915
G1 X122.121 Y79.248 E10.5298
G1 X124.227 Y80.712 E10.61511
G1 X126.373 Y82.116 E10.7004
G1 X128.115 Y83.197 E10.76859
G1 X128.892 Y83.73 E10.79993
G1 X129.729 Y84.431 E10.83624
G1 X130.299 Y84.982 E10.86261
G1 X130.569 Y85.262 E10.87555
G1 X131.033 Y85.776 E10.89858
G1 X132.735 Y87.789 E10.98626
G1 X134.411 Y89.664 E11.0699
G1 X136.138 Y91.49 E11.1535
G1 X137.94 Y93.289 E11.23819
G1 X139.782 Y95.029 E11.32246
G1 X141.679 Y96.72 E11.40699
G1 X143.168 Y97.98 E11.47186
G1 X144.273 Y98.897 E11.51962
G1 X144.967 Y99.529 E11.55084
G1 X145.603 Y100.22 E11.58208
G1 X146.154 Y100.935 E11.6121
G1 X146.592 Y101.606 E11.63875
G1 X147.027 Y102.338 E11.66707
G1 X158.788 Y122.709 E12.44943
G1 X159.282 Y123.596 E12.4832
G1 X159.738 Y124.517 E12.51738
G1 X159.931 Y124.963 E12.53354
G1 X160.288 Y125.907 E12.56711
G1 X160.391 Y126.226 E12.57826
G1 X160.631 Y127.097 E12.60831
G1 X160.729 Y127.526 E12.62294
G1 X160.907 Y128.527 E12.65676
G1 X160.95 Y128.868 E12.66819
G1 X161.024 Y129.685 E12.69548
G1 X161.04 Y130.029 E12.70693
G1 X161.042 Y131.002 E12.73929
G1 X161.023 Y131.425 E12.75337
G1 X160.947 Y132.294 E12.78239
G1 X160.904 Y132.624 E12.79346
G1 X160.72 Y133.645 E12.82796
G1 X160.614 Y134.098 E12.84344
G1 X160.363 Y134.992 E12.87432
G1 X160.266 Y135.285 E12.88459
G1 X159.951 Y136.121 E12.9143
G1 X159.806 Y136.459 E12.92653
G1 X159.394 Y137.313 E12.95807
G1 X159.2 Y137.671 E12.97161
G1 X158.721 Y138.472 E13.00265
G1 X158.541 Y138.743 E13.01347
G1 X158.015 Y139.468 E13.04327
G1 X157.751 Y139.8 E13.05737
G1 X157.124 Y140.52 E13.08913
G1 X156.88 Y140.775 E13.10087
G1 X156.241 Y141.39 E13.13036
G1 X155.97 Y141.628 E13.14236
G1 X155.219 Y142.231 E13.17439
G1 X154.892 Y142.469 E13.18785
G1 X154.078 Y143.006 E13.22028
G1 X153.804 Y143.169 E13.23088
G1 X152.987 Y143.607 E13.26172
G1 X152.579 Y143.803 E13.27677
G1 X151.652 Y144.196 E13.31026
G1 X151.297 Y144.327 E13.32285
G1 X150.36 Y144.627 E13.35557
G1 X149.309 Y144.868 E13.39143
G1 X148.834 Y144.954 E13.40749
G1 X147.861 Y145.084 E13.44014
G1 X147.566 Y145.109 E13.44998
G1 X146.686 Y145.147 E13.47928
G1 X146.245 Y145.147 E13.49395
G1 X145.352 Y145.108 E13.52368
G1 X145.062 Y145.083 E13.53336
G1 X144.075 Y144.951 E13.56648
G1 X143.438 Y144.83 E13.58804
G1 X142.177 Y144.556 E13.63096
G1 X139.502 Y143.948 E13.7222
G1 X137.511 Y143.531 E13.78986
G1 X136.131 Y143.259 E13.83664
G1 X134.151 Y142.897 E13.90359
G1 X132.185 Y142.566 E13.9699
G1 X129.879 Y142.213 E14.04749
G1 X128.005 Y141.957 E14.1104
G1 X125.926 Y141.703 E14.18006
G1 X123.868 Y141.481 E14.24891
G1 X121.615 Y141.273 E14.32416
G1 X119.806 Y141.135 E14.3845
G1 X116.918 Y140.961 E14.48073
G1 X114.717 Y140.869 E14.554
G1 X112.707 Y140.816 E14.62088
G1 X110.675 Y140.791 E14.68847
G1 X108.596 Y140.796 E14.75762
G1 X106.614 Y140.83 E14.82355
G1 X104.607 Y140.893 E14.89033
G1 X103.079 Y140.959 E14.9412
G1 X101.111 Y141.072 E15.00677
G1 X98.838 Y141.236 E15.08256
G1 X96.767 Y141.417 E15.15171
G1 X94.756 Y141.624 E15.21895
G1 X92.658 Y141.871 E15.28921
G1 X90.72 Y142.128 E15.35423
G1 X88.641 Y142.435 E15.42413
G1 X85.73 Y142.917 E15.52227
G1 X83.786 Y143.274 E15.58801
G1 X81.925 Y143.644 E15.65112
G1 X80.427 Y143.962 E15.70205
G1 X77.566 Y144.612 E15.79963
G1 X76.434 Y144.857 E15.83815
G1 X75.48 Y145.018 E15.87033
G1 X75.067 Y145.068 E15.88417
G1 X74.124 Y145.138 E15.91562
G1 X73.805 Y145.147 E15.92623
G1 X72.872 Y145.133 E15.95727
G1 X72.42 Y145.106 E15.97233
G1 X71.502 Y145.009 E16.00303
G1 X71.235 Y144.969 E16.01201
G1 X70.256 Y144.775 E16.04521
G1 X69.79 Y144.659 E16.06118
G1 X68.862 Y144.383 E16.09338
G1 X68.575 Y144.282 E16.1035
G1 X67.798 Y143.974 E16.1313
G1 X67.478 Y143.832 E16.14294
G1 X66.606 Y143.396 E16.17537
G1 X66.229 Y143.185 E16.18974
G1 X65.436 Y142.693 E16.22078
G1 X65.113 Y142.472 E16.2338
G1 X64.309 Y141.862 E16.26736
G1 X64.039 Y141.635 E16.2791
G1 X63.421 Y141.073 E16.30688
G1 X63.159 Y140.814 E16.31913
G1 X62.518 Y140.124 E16.35046
G1 X62.313 Y139.881 E16.36103
G1 X61.744 Y139.144 E16.392
G1 X61.455 Y138.733 E16.40871
G1 X60.905 Y137.862 E16.44297
G1 X60.762 Y137.609 E16.45264
G1 X60.388 Y136.88 E16.47989
G1 X60.234 Y136.547 E16.49209
G1 X59.874 Y135.672 E16.52356
G1 X59.737 Y135.287 E16.53715
G1 X59.458 Y134.379 E16.56875
G1 X59.372 Y134.045 E16.58022
G1 X59.183 Y133.155 E16.61048
G1 X59.118 Y132.76 E16.62379
G1 X59.004 Y131.819 E16.65532
G1 X58.979 Y131.479 E16.66666
G1 X58.952 Y130.557 E16.69734
G1 X58.959 Y130.12 E16.71187
G1 X59.024 Y129.104 E16.74574
G1 X59.067 Y128.724 E16.75846
G1 X59.22 Y127.741 E16.79154
G1 X59.469 Y126.721 E16.82647
G1 X59.612 Y126.234 E16.84335
G1 X59.92 Y125.335 E16.87495
G1 X60.042 Y125.028 E16.88594
G1 X60.595 Y123.849 E16.92925
G1 X61.302 Y122.559 E16.97818
G1 X73.068 Y102.177 E17.76094
G1 X73.43 Y101.575 E17.7843
G1 X73.949 Y100.794 E17.81549
G1 X74.535 Y100.061 E17.8467
G1 X75.182 Y99.385 E17.87782
G1 X75.745 Y98.882 E17.90293
G1 X77.01 Y97.833 E17.95759
G1 X78.977 Y96.144 E18.04382
G1 X80.851 Y94.437 E18.12814
G1 X82.638 Y92.717 E18.21063
G1 X84.443 Y90.877 E18.29636
G1 X86.142 Y89.045 E18.37946
G1 X87.832 Y87.116 E18.46476
G1 X89.065 Y85.641 E18.5287
G1 X89.7 Y84.949 E18.55994
G0 F9000 X89.97 Y85.244
G1 F6000 X89.36 Y85.911 E18.59
G1 X88.133 Y87.38 E18.65366
G1 X86.443 Y89.309 E18.73896
G1 X84.729 Y91.157 E18.82279
G1 X82.924 Y92.997 E18.90852
G1 X81.12 Y94.733 E18.99179
G1 X79.238 Y96.447 E19.07646
G1 X77.265 Y98.141 E19.16295
G1 X76 Y99.19 E19.21761
G1 X75.448 Y99.683 E19.24222
G1 X74.824 Y100.337 E19.27229
G1 X74.262 Y101.043 E19.3023
G1 X73.763 Y101.796 E19.33235
G1 X73.411 Y102.383 E19.35511
G1 X61.648 Y122.759 E20.13764
G1 X60.946 Y124.041 E20.18626
G1 X60.404 Y125.198 E20.22875
G1 X60.292 Y125.482 E20.23891
G1 X59.99 Y126.364 E20.26991
G1 X59.853 Y126.833 E20.28617
G1 X59.609 Y127.836 E20.3205
G1 X59.462 Y128.785 E20.35244
G1 X59.421 Y129.149 E20.36462
G1 X59.358 Y130.145 E20.39781
G1 X59.352 Y130.563 E20.41172
G1 X59.379 Y131.467 E20.4418
G1 X59.403 Y131.789 E20.45254
G1 X59.515 Y132.712 E20.48346
G1 X59.578 Y133.089 E20.49618
G1 X59.763 Y133.962 E20.52586
G1 X59.845 Y134.279 E20.53675
G1 X60.119 Y135.169 E20.56772
G1 X60.251 Y135.537 E20.58072
G1 X60.604 Y136.395 E20.61158
G1 X60.751 Y136.711 E20.62317
G1 X61.118 Y137.426 E20.6499
G1 X61.253 Y137.665 E20.65903
G1 X61.793 Y138.519 E20.69264
G1 X62.071 Y138.914 E20.70871
G1 X62.629 Y139.636 E20.73905
G1 X62.823 Y139.865 E20.74904
G1 X63.452 Y140.542 E20.77977
G1 X63.702 Y140.788 E20.79144
G1 X64.308 Y141.339 E20.81868
G1 X64.566 Y141.555 E20.82987
G1 X65.355 Y142.153 E20.8628
G1 X65.662 Y142.363 E20.87517
G1 X66.44 Y142.845 E20.90561
G1 X66.801 Y143.047 E20.91937
G1 X67.657 Y143.474 E20.95119
G1 X67.96 Y143.608 E20.96221
G1 X68.722 Y143.91 E20.98947
G1 X68.994 Y144.005 E20.99905
G1 X69.904 Y144.276 E21.03063
G1 X70.352 Y144.387 E21.04598
G1 X71.294 Y144.573 E21.07792
G1 X71.561 Y144.613 E21.0869
G1 X72.462 Y144.708 E21.11703
G1 X72.896 Y144.734 E21.13149
G1 X73.811 Y144.747 E21.16193
G1 X74.112 Y144.738 E21.17194
G1 X75.037 Y144.669 E21.20279
G1 X75.432 Y144.621 E21.21603
G1 X76.367 Y144.463 E21.24757
G1 X77.481 Y144.221 E21.28548
G1 X80.338 Y143.572 E21.38293
G1 X81.847 Y143.252 E21.43423
G1 X83.708 Y142.882 E21.49734
G1 X85.665 Y142.523 E21.56352
G1 X88.576 Y142.04 E21.66166
G1 X90.667 Y141.731 E21.73197
G1 X92.605 Y141.474 E21.79699
G1 X94.715 Y141.226 E21.86765
G1 X96.726 Y141.02 E21.93489
G1 X98.809 Y140.837 E22.00443
G1 X101.082 Y140.673 E22.08023
G1 X103.061 Y140.56 E22.14616
G1 X104.589 Y140.493 E22.19703
G1 X106.601 Y140.43 E22.26398
G1 X108.589 Y140.396 E22.33011
G1 X110.679 Y140.391 E22.39963
G1 X112.718 Y140.416 E22.46745
G1 X114.734 Y140.469 E22.53452
G1 X116.935 Y140.561 E22.60779
G1 X119.836 Y140.736 E22.70446
G1 X121.645 Y140.874 E22.7648
G1 X123.911 Y141.084 E22.84049
G1 X125.969 Y141.305 E22.90933
G1 X128.054 Y141.56 E22.9792
G1 X129.94 Y141.818 E23.04251
G1 X132.246 Y142.171 E23.1201
G1 X134.223 Y142.504 E23.18678
