;FLAVOR:Marlin
;TIME:257
;Filament used: 0.0955573m
;Layer height: 0.2
;MINX:92.288
;MINY:92.328
;MINZ:0.2
;MAXX:127.713
;MAXY:127.659
;MAXZ:4.6
;TARGET_MACHINE.NAME:Creality Ender-3 V3 KE
;Generated with Cura_SteamEngine 5.8.1
M140 S60
M105
M190 S60
M82 ;absolute extrusion mode
M220 S100 ;Reset Feedrate
M221 S100 ;Reset Flowrate

G28 ;Home

G92 E0 ;Reset Extruder
G1 Z2.0 F3000 ;Move Z Axis up
G1 X-2.0 Y20 Z0.28 F5000.0 ;Move to start position
M109 S218.0
G1 X-2.0 Y145.0 Z0.28 F1500.0 E15 ;Draw the first line
G1 X-1.7 Y145.0 Z0.28 F5000.0 ;Move to side a little
G1 X-1.7 Y20 Z0.28 F1500.0 E30 ;Draw the second line
G92 E0 ;Reset Extruder
G1 E-1 F1800 ;Retract a bit
G1 Z2.0 F3000 ;Move Z Axis up
G1 E0 F1800
G92 E0
G92 E0
G1 F2400 E-0.8
;LAYER_COUNT:22
;LAYER:0
;note -- min layer time used
M107
G1 F300 Z0.4
G0 F9000 X97.208 Y97.692 Z0.4
;TYPE:SKIRT
G1 F300 Z0.2
G1 F2400 E0
G1 F4018.5 X97.91 Y97.023 E0.03225
G1 X98.55 Y96.506 E0.05962
G1 X99.456 Y95.831 E0.09719
G1 X100.605 Y95.005 E0.14426
G1 X101.39 Y94.493 E0.17543
G1 X102.28 Y94.018 E0.20899
G1 X103.153 Y93.647 E0.24054
G1 X103.959 Y93.346 E0.26915
G1 X104.516 Y93.157 E0.28872
G1 X105.255 Y92.927 E0.31446
G1 X106.02 Y92.712 E0.34089
G1 X106.97 Y92.499 E0.37327
G1 X107.941 Y92.369 E0.40585
G1 X109.011 Y92.328 E0.44147
G1 X111.316 Y92.353 E0.51814
G1 X112.288 Y92.408 E0.55052
G1 X113.246 Y92.548 E0.58272
G1 X114.018 Y92.725 E0.60906
G1 X114.764 Y92.932 E0.63481
G1 X115.487 Y93.158 E0.66001
G1 X116.152 Y93.384 E0.68337
G1 X116.927 Y93.673 E0.71088
G1 X117.788 Y94.049 E0.74212
G1 X118.67 Y94.53 E0.77554
G1 X119.349 Y94.976 E0.80256
G1 X121.227 Y96.316 E0.87929
G1 X121.992 Y96.918 E0.91167
G1 X122.701 Y97.585 E0.94405
G1 X123.315 Y98.272 E0.97469
G1 X123.84 Y98.926 E1.00258
G1 X124.317 Y99.569 E1.02921
G1 X124.944 Y100.462 E1.0655
G1 X125.158 Y100.788 E1.07847
G1 X125.656 Y101.624 E1.11084
G1 X126.079 Y102.499 E1.14316
G1 X126.385 Y103.298 E1.17162
G1 X126.725 Y104.312 E1.20719
G1 X127.157 Y105.657 E1.25418
G1 X127.411 Y106.596 E1.28653
G1 X127.572 Y107.485 E1.31658
G1 X127.665 Y108.474 E1.34962
G1 X127.703 Y109.301 E1.37716
G1 X127.713 Y109.955 E1.39891
G1 X127.701 Y110.805 E1.42718
G1 X127.675 Y111.495 E1.45015
G1 X127.582 Y112.506 E1.48392
G1 X127.415 Y113.427 E1.51505
G1 X127.194 Y114.255 E1.54355
G1 X126.939 Y115.077 E1.57218
G1 X126.836 Y115.365 E1.58235
G1 X126.434 Y116.587 E1.62514
G1 X126.087 Y117.496 E1.6575
G1 X125.665 Y118.368 E1.68972
G1 X125.276 Y119.029 E1.71523
G1 X124.738 Y119.839 E1.74757
G1 X124.089 Y120.739 E1.78448
G1 X123.472 Y121.536 E1.818
G1 X122.832 Y122.268 E1.85034
G1 X122.155 Y122.921 E1.88163
G1 X121.351 Y123.567 E1.91593
G1 X119.432 Y124.964 E1.99488
G1 X118.618 Y125.502 E2.02733
G1 X117.758 Y125.964 E2.0598
G1 X116.802 Y126.371 E2.09436
G1 X116.007 Y126.666 E2.12256
G1 X115.47 Y126.848 E2.14142
G1 X114.76 Y127.068 E2.16614
G1 X114.037 Y127.271 E2.19112
G1 X113.086 Y127.483 E2.22353
G1 X112.121 Y127.612 E2.25591
G1 X111.188 Y127.654 E2.28697
G1 X108.857 Y127.659 E2.3645
G1 X107.92 Y127.618 E2.39569
G1 X106.922 Y127.485 E2.42918
G1 X106.054 Y127.293 E2.45875
G1 X105.223 Y127.062 E2.48744
G1 X104.407 Y126.806 E2.51588
G1 X103.647 Y126.544 E2.54262
G1 X103.18 Y126.37 E2.55919
G1 X102.283 Y125.988 E2.59162
G1 X101.43 Y125.532 E2.62379
G1 X100.755 Y125.098 E2.65048
G1 X99.965 Y124.546 E2.68254
G1 X98.744 Y123.665 E2.73262
G1 X97.983 Y123.058 E2.76499
G1 X97.277 Y122.387 E2.79739
G1 X96.641 Y121.665 E2.82939
G1 X96.207 Y121.125 E2.85243
G1 X95.86 Y120.669 E2.87149
G1 X95.295 Y119.882 E2.90371
G1 X94.828 Y119.192 E2.93142
G1 X94.365 Y118.416 E2.96148
G1 X93.912 Y117.475 E2.99621
G1 X93.58 Y116.593 E3.02756
G1 X92.852 Y114.367 E3.10546
G1 X92.593 Y113.427 E3.13789
G1 X92.418 Y112.464 E3.17044
G1 X92.322 Y111.376 E3.20677
G1 X92.294 Y110.586 E3.23306
G1 X92.288 Y110.065 E3.25039
G1 X92.299 Y109.186 E3.27963
G1 X92.325 Y108.502 E3.30239
G1 X92.418 Y107.489 E3.33623
G1 X92.594 Y106.532 E3.36859
G1 X92.856 Y105.586 E3.40124
G1 X93.558 Y103.435 E3.4765
G1 X93.902 Y102.526 E3.50882
G1 X94.293 Y101.712 E3.53886
G1 X94.752 Y100.928 E3.56907
G1 X95.206 Y100.238 E3.59654
G1 X95.595 Y99.687 E3.61898
G1 X96.056 Y99.065 E3.64473
G1 X96.551 Y98.437 E3.67132
G1 X97.208 Y97.692 E3.70436
G0 F9000 X97.484 Y97.981
G1 F4018.5 X98.162 Y97.334 E3.73553
G1 X98.789 Y96.827 E3.76235
G1 X99.69 Y96.156 E3.79972
G1 X100.824 Y95.34 E3.84618
G1 X101.579 Y94.846 E3.87619
G1 X102.437 Y94.386 E3.90857
G1 X103.293 Y94.022 E3.93951
G1 X104.088 Y93.725 E3.96774
G1 X104.635 Y93.539 E3.98695
G1 X105.364 Y93.312 E4.01235
G1 X106.108 Y93.102 E4.03806
G1 X107.024 Y92.895 E4.06929
G1 X107.957 Y92.769 E4.10061
G1 X109.007 Y92.728 E4.13556
G1 X111.294 Y92.752 E4.21163
G1 X112.231 Y92.804 E4.24284
G1 X113.157 Y92.938 E4.27396
G1 X113.911 Y93.111 E4.29969
G1 X114.645 Y93.314 E4.32502
G1 X115.358 Y93.537 E4.34987
G1 X116.012 Y93.759 E4.37284
G1 X116.767 Y94.04 E4.39963
G1 X117.628 Y94.416 E4.43088
G1 X118.45 Y94.864 E4.46202
G1 X119.117 Y95.302 E4.48856
G1 X120.98 Y96.631 E4.56467
G1 X121.718 Y97.21 E4.59587
G1 X122.403 Y97.852 E4.6271
G1 X123.003 Y98.522 E4.65701
G1 X123.519 Y99.165 E4.68443
G1 X123.99 Y99.799 E4.7107
G1 X124.61 Y100.682 E4.74659
G1 X124.815 Y100.993 E4.75897
G1 X125.296 Y101.798 E4.79016
G1 X125.705 Y102.642 E4.82136
G1 X126.011 Y103.441 E4.84981
G1 X126.344 Y104.434 E4.88465
G1 X126.771 Y105.762 E4.93105
G1 X127.017 Y106.667 E4.96224
G1 X127.178 Y107.556 E4.99229
G1 X127.265 Y108.493 E5.02359
G1 X127.303 Y109.307 E5.05069
G1 X127.313 Y109.949 E5.07205
G1 X127.301 Y110.79 E5.10002
G1 X127.275 Y111.48 E5.12299
G1 X127.188 Y112.435 E5.15488
G1 X127.028 Y113.324 E5.18492
G1 X126.812 Y114.136 E5.21287
G1 X126.562 Y114.942 E5.24094
G1 X126.459 Y115.23 E5.25111
G1 X126.06 Y116.445 E5.29365
G1 X125.727 Y117.322 E5.32485
G1 X125.32 Y118.165 E5.35598
G1 X124.931 Y118.826 E5.38149
G1 X124.414 Y119.605 E5.41259
G1 X123.773 Y120.494 E5.44904
G1 X123.17 Y121.273 E5.48181
G1 X122.554 Y121.98 E5.51299
G1 X121.877 Y122.633 E5.54428
G1 X121.115 Y123.244 E5.57676
G1 X119.211 Y124.631 E5.65511
G1 X118.428 Y125.15 E5.68636
G1 X117.601 Y125.596 E5.71761
G1 X116.663 Y125.996 E5.75152
G1 X115.878 Y126.287 E5.77937
G1 X115.351 Y126.466 E5.79788
G1 X114.652 Y126.683 E5.82223
G1 X113.949 Y126.881 E5.84652
G1 X113.033 Y127.087 E5.87774
G1 X112.103 Y127.212 E5.90895
G1 X111.187 Y127.254 E5.93945
G1 X108.874 Y127.259 E6.01638
G1 X107.937 Y127.218 E6.04758
G1 X107.008 Y127.094 E6.07875
G1 X106.14 Y126.902 E6.10832
G1 X105.342 Y126.68 E6.13587
G1 X104.537 Y126.428 E6.16392
G1 X103.786 Y126.169 E6.19035
G1 X103.336 Y126.002 E6.20631
G1 X102.471 Y125.635 E6.23756
G1 X101.646 Y125.195 E6.26866
G1 X100.984 Y124.77 E6.29483
G1 X100.199 Y124.222 E6.32667
G1 X98.993 Y123.352 E6.37613
G1 X98.258 Y122.768 E6.40735
G1 X97.577 Y122.122 E6.43857
G1 X96.953 Y121.415 E6.46993
G1 X96.525 Y120.882 E6.49267
G1 X96.185 Y120.436 E6.51132
G1 X95.626 Y119.658 E6.54319
G1 X95.172 Y118.987 E6.57013
G1 X94.709 Y118.211 E6.60019
G1 X94.286 Y117.334 E6.63257
G1 X93.96 Y116.469 E6.66332
G1 X93.237 Y114.26 E6.74062
G1 X92.986 Y113.355 E6.77186
G1 X92.816 Y112.429 E6.80317
G1 X92.722 Y111.362 E6.8388
G1 X92.694 Y110.581 E6.86479
G1 X92.688 Y110.07 E6.88179
G1 X92.699 Y109.201 E6.9107
G1 X92.725 Y108.517 E6.93346
G1 X92.811 Y107.561 E6.96539
G1 X92.98 Y106.638 E6.9966
G1 X93.236 Y105.71 E7.02861
G1 X93.932 Y103.576 E7.10327
G1 X94.263 Y102.699 E7.13445
G1 X94.654 Y101.885 E7.16448
G1 X95.086 Y101.148 E7.1929
G1 X95.533 Y100.469 E7.21994
G1 X95.917 Y99.925 E7.24208
G1 X96.37 Y99.313 E7.26741
G1 X96.865 Y98.685 E7.294
G1 X97.484 Y97.981 E7.32518
G0 F9000 X97.761 Y98.27
G1 F4018.5 X98.414 Y97.645 E7.35525
G1 X99.028 Y97.148 E7.38152
G1 X99.924 Y96.481 E7.41867
G1 X101.043 Y95.675 E7.46454
G1 X101.798 Y95.181 E7.49455
G1 X102.594 Y94.754 E7.52459
G1 X103.433 Y94.397 E7.55492
G1 X104.217 Y94.104 E7.58276
G1 X104.754 Y93.921 E7.60163
G1 X105.473 Y93.697 E7.62667
G1 X106.197 Y93.492 E7.6517
G1 X107.078 Y93.291 E7.68176
G1 X107.973 Y93.169 E7.7118
G1 X109.003 Y93.128 E7.74608
G1 X111.272 Y93.151 E7.82155
G1 X112.174 Y93.2 E7.8516
G1 X113.068 Y93.328 E7.88164
G1 X113.804 Y93.496 E7.90675
G1 X114.526 Y93.696 E7.93166
G1 X115.23 Y93.916 E7.9562
G1 X115.873 Y94.134 E7.97878
G1 X116.608 Y94.407 E8.00486
G1 X117.437 Y94.767 E8.03492
G1 X118.23 Y95.198 E8.06494
G1 X118.885 Y95.628 E8.091
G1 X120.734 Y96.946 E8.16652
G1 X121.445 Y97.502 E8.19654
G1 X122.105 Y98.119 E8.22659
G1 X122.691 Y98.772 E8.25577
G1 X123.198 Y99.404 E8.28272
G1 X123.663 Y100.029 E8.30863
G1 X124.276 Y100.903 E8.34414
G1 X124.472 Y101.199 E8.35594
G1 X124.936 Y101.973 E8.38596
G1 X125.331 Y102.785 E8.41599
G1 X125.637 Y103.584 E8.44445
G1 X125.963 Y104.557 E8.47858
G1 X126.385 Y105.867 E8.52435
G1 X126.623 Y106.738 E8.55439
G1 X126.784 Y107.627 E8.58444
G1 X126.865 Y108.512 E8.61399
G1 X126.903 Y109.313 E8.64066
G1 X126.913 Y109.943 E8.66162
G1 X126.901 Y110.775 E8.6893
G1 X126.875 Y111.465 E8.71226
G1 X126.794 Y112.364 E8.74228
G1 X126.634 Y113.253 E8.77233
G1 X126.43 Y114.018 E8.79866
G1 X126.186 Y114.807 E8.82613
G1 X126.079 Y115.105 E8.83666
G1 X125.686 Y116.304 E8.87863
G1 X125.367 Y117.148 E8.90864
G1 X124.975 Y117.962 E8.93869
G1 X124.586 Y118.623 E8.9642
G1 X124.089 Y119.371 E8.99407
G1 X123.457 Y120.249 E9.03005
G1 X122.868 Y121.011 E9.06208
G1 X122.276 Y121.693 E9.09212
G1 X121.627 Y122.321 E9.12215
G1 X120.879 Y122.921 E9.15405
G1 X118.99 Y124.298 E9.2318
G1 X118.238 Y124.798 E9.26183
G1 X117.444 Y125.228 E9.29186
G1 X116.524 Y125.621 E9.32514
G1 X115.749 Y125.908 E9.35263
G1 X115.232 Y126.084 E9.37079
G1 X114.543 Y126.298 E9.39479
G1 X113.86 Y126.491 E9.41839
G1 X112.979 Y126.691 E9.44844
G1 X112.084 Y126.812 E9.47848
G1 X111.186 Y126.854 E9.50838
G1 X108.891 Y126.859 E9.58471
G1 X107.989 Y126.821 E9.61474
G1 X107.094 Y126.703 E9.64476
G1 X106.226 Y126.511 E9.67433
G1 X105.461 Y126.298 E9.70074
G1 X104.667 Y126.05 E9.72841
G1 X103.925 Y125.794 E9.75452
G1 X103.491 Y125.633 E9.76991
G1 X102.659 Y125.282 E9.79995
G1 X101.862 Y124.858 E9.82997
G1 X101.213 Y124.442 E9.85561
G1 X100.433 Y123.898 E9.88724
G1 X99.241 Y123.038 E9.93613
G1 X98.533 Y122.478 E9.96615
G1 X97.877 Y121.857 E9.9962
G1 X97.265 Y121.164 E10.02695
G1 X96.843 Y120.64 E10.04933
G1 X96.51 Y120.202 E10.06763
G1 X95.957 Y119.434 E10.0991
G1 X95.516 Y118.782 E10.12528
G1 X95.053 Y118.006 E10.15534
G1 X94.66 Y117.193 E10.18537
G1 X94.34 Y116.344 E10.21555
G1 X93.622 Y114.152 E10.29227
G1 X93.379 Y113.282 E10.32231
G1 X93.214 Y112.394 E10.35235
G1 X93.122 Y111.347 E10.38731
G1 X93.094 Y110.576 E10.41297
G1 X93.088 Y110.075 E10.42963
G1 X93.099 Y109.216 E10.45821
G1 X93.125 Y108.532 E10.48097
G1 X93.205 Y107.632 E10.51103
G1 X93.366 Y106.744 E10.54104
G1 X93.616 Y105.834 E10.57243
G1 X94.306 Y103.717 E10.64649
G1 X94.624 Y102.872 E10.67652
G1 X95.015 Y102.058 E10.70655
G1 X95.42 Y101.368 E10.73316
G1 X95.86 Y100.7 E10.75977
G1 X96.239 Y100.163 E10.78163
G1 X96.692 Y99.551 E10.80695
G1 X97.166 Y98.949 E10.83244
G1 X97.761 Y98.27 E10.86246
G1 F2400 E10.06246
G1 F300 Z0.4
G0 F9000 X105.214 Y105.522 Z0.4
G1 F300 Z0.2
G1 F2400 E10.86246
G1 F4018.5 X105.28 Y105.527 E10.86467
G1 X105.33 Y105.524 E10.86633
G1 X105.713 Y105.453 E10.87929
G1 X105.756 Y105.427 E10.88096
G1 X106.035 Y105.333 E10.89075
G1 X106.073 Y105.315 E10.89215
G1 X106.419 Y105.111 E10.90551
G1 X106.451 Y105.088 E10.90682
G1 X106.745 Y104.824 E10.91996
G1 X106.772 Y104.794 E10.9213
G1 X107.019 Y104.461 E10.93509
G1 X107.034 Y104.437 E10.93604
G1 X107.164 Y104.197 E10.94511
G1 X107.184 Y104.141 E10.94709
G1 X107.197 Y104.077 E10.94926
G1 X107.976 Y103.795 E10.97682
G1 X108.836 Y103.542 E11.00663
G1 X108.861 Y103.568 E11.00783
G1 X108.924 Y103.611 E11.01037
G1 X109.227 Y103.742 E11.02135
G1 X109.25 Y103.75 E11.02216
G1 X109.623 Y103.859 E11.03509
G1 X109.663 Y103.866 E11.03644
G1 X110.067 Y103.899 E11.04992
G1 X110.111 Y103.898 E11.05138
G1 X110.582 Y103.831 E11.0672
G1 X110.615 Y103.823 E11.06833
G1 X111.065 Y103.678 E11.08406
G1 X111.138 Y103.637 E11.08684
G1 X111.22 Y103.563 E11.09052
G1 X112.017 Y103.794 E11.11812
G1 X112.817 Y104.08 E11.14637
G1 X112.93 Y104.332 E11.15556
G1 X112.949 Y104.365 E11.15683
G1 X113.181 Y104.694 E11.17022
G1 X113.207 Y104.725 E11.17156
G1 X113.501 Y105.002 E11.185
G1 X113.533 Y105.026 E11.18633
G1 X113.867 Y105.232 E11.19938
G1 X113.904 Y105.25 E11.20075
G1 X114.309 Y105.396 E11.21507
G1 X114.334 Y105.403 E11.21593
G1 X114.613 Y105.465 E11.22544
G1 X114.687 Y105.468 E11.2279
G1 X114.735 Y105.46 E11.22952
G1 X115.288 Y106.17 E11.25945
G1 X115.749 Y106.846 E11.28666
G1 X115.706 Y106.945 E11.29025
G1 X115.69 Y107.017 E11.29271
G1 X115.672 Y107.501 E11.30882
G1 X115.686 Y107.502 E11.30928
G1 X115.673 Y107.543 E11.31071
G1 X115.738 Y107.936 E11.32396
G1 X115.75 Y107.979 E11.32545
G1 X115.961 Y108.494 E11.34396
G1 X115.983 Y108.534 E11.34548
G1 X116.337 Y109.034 E11.36585
G1 X116.407 Y109.095 E11.36894
G1 X116.499 Y109.143 E11.37239
G1 X116.527 Y109.992 E11.40065
G1 X116.499 Y110.878 E11.43013
G1 X116.468 Y110.894 E11.43129
G1 X116.409 Y110.94 E11.43378
G1 X116.185 Y111.191 E11.44497
G1 X116.166 Y111.216 E11.44601
G1 X115.959 Y111.539 E11.45877
G1 X115.941 Y111.574 E11.46008
G1 X115.795 Y111.946 E11.47337
G1 X115.783 Y111.988 E11.47482
G1 X115.712 Y112.445 E11.49021
G1 X115.71 Y112.479 E11.49134
G1 X115.718 Y112.956 E11.50721
G1 X115.739 Y113.042 E11.51015
G1 X115.774 Y113.112 E11.51275
G1 X115.278 Y113.836 E11.54194
G1 X114.783 Y114.481 E11.56899
G1 X114.709 Y114.475 E11.57146
G1 X114.658 Y114.477 E11.57315
G1 X114.176 Y114.565 E11.58945
G1 X114.113 Y114.588 E11.59168
G1 X113.624 Y114.866 E11.61039
G1 X113.591 Y114.89 E11.61175
G1 X113.29 Y115.154 E11.62506
G1 X113.259 Y115.188 E11.62659
G1 X113.014 Y115.534 E11.64069
G1 X112.996 Y115.545 E11.64139
G1 X112.838 Y115.807 E11.65157
G1 X112.813 Y115.87 E11.65383
G1 X112.802 Y115.922 E11.65559
G1 X111.994 Y116.214 E11.68417
G1 X111.219 Y116.44 E11.71102
G1 X111.141 Y116.369 E11.71453
G1 X111.073 Y116.329 E11.71715
G1 X110.604 Y116.161 E11.73372
G1 X110.565 Y116.151 E11.73506
G1 X110.175 Y116.095 E11.74816
G1 X110.131 Y116.094 E11.74963
G1 X109.583 Y116.137 E11.76791
G1 X109.539 Y116.145 E11.7694
G1 X108.964 Y116.327 E11.78946
G1 X108.886 Y116.373 E11.79247
G1 X108.81 Y116.445 E11.79595
G1 X107.982 Y116.204 E11.82463
G1 X107.206 Y115.929 E11.85202
G1 X107.196 Y115.879 E11.85371
G1 X107.176 Y115.824 E11.85566
G1 X106.945 Y115.396 E11.87183
G1 X106.902 Y115.341 E11.87416
G1 X106.474 Y114.961 E11.89319
G1 X106.439 Y114.937 E11.8946
G1 X106.043 Y114.713 E11.90974
G1 X106.007 Y114.697 E11.91105
G1 X105.489 Y114.527 E11.92918
G1 X105.393 Y114.52 E11.93238
G1 X105.266 Y114.542 E11.93667
G1 X104.689 Y113.796 E11.96804
G1 X104.251 Y113.153 E11.99391
G1 X104.298 Y113.049 E11.99771
G1 X104.315 Y112.971 E12.00036
G1 X104.325 Y112.501 E12.016
G1 X104.316 Y112.501 E12.0163
G1 X104.329 Y112.453 E12.01795
G1 X104.253 Y112.034 E12.03212
G1 X104.241 Y111.993 E12.03354
G1 X104.034 Y111.498 E12.05138
G1 X104.012 Y111.459 E12.05287
G1 X103.66 Y110.965 E12.07305
G1 X103.592 Y110.905 E12.07606
G1 X103.501 Y110.856 E12.0795
G1 X103.473 Y110.004 E12.10785
G1 X103.501 Y109.117 E12.13737
G1 X103.533 Y109.102 E12.13855
G1 X103.598 Y109.053 E12.14125
G1 X103.827 Y108.794 E12.15275
G1 X103.847 Y108.767 E12.15387
G1 X104.055 Y108.432 E12.16698
G1 X104.073 Y108.397 E12.16829
G1 X104.212 Y108.022 E12.1816
G1 X104.222 Y107.982 E12.18297
G1 X104.286 Y107.562 E12.1971
G1 X104.288 Y107.53 E12.19816
G1 X104.284 Y107.049 E12.21416
G1 X104.263 Y106.962 E12.21714
G1 X104.226 Y106.889 E12.21986
G1 X104.742 Y106.135 E12.25025
G1 X105.214 Y105.522 E12.27598
G0 F9000 X105.417 Y105.914
G1 F4018.5 X105.786 Y105.846 E12.28846
G1 X105.94 Y105.787 E12.29395
G1 X106.163 Y105.712 E12.30177
G1 X106.276 Y105.66 E12.30591
G1 X106.622 Y105.456 E12.31927
G1 X106.715 Y105.387 E12.32312
G1 X106.607 Y105.508 E12.32851
G1 X106.56 Y105.531 E12.33025
G1 X106.384 Y105.66 E12.33751
G1 X106.266 Y105.844 E12.34478
G1 X106.254 Y105.901 E12.34672
G1 X105.944 Y106.248 E12.3622
G1 X105.779 Y106.433 E12.37044
