;FLAVOR:Marlin
;TIME:1329
;Filament used: 0.70317m
;Layer height: 0.2
;MINX:82.65
;MINY:86.171
;MINZ:0.2
;MAXX:137.35
;MAXY:133.88
;MAXZ:21.6
;TARGET_MACHINE.NAME:Creality Ender-3 V3 KE
;Generated with Cura_SteamEngine 5.8.1
M140 S60
M105
M190 S60
M82 ;absolute extrusion mode
M220 S100 ;Reset Feedrate
M221 S100 ;Reset Flowrate

G28 ;Home

G92 E0 ;Reset Extruder
G1 Z2.0 F3000 ;Move Z Axis up
G1 X-2.0 Y20 Z0.28 F5000.0 ;Move to start position
M109 S218.0
G1 X-2.0 Y145.0 Z0.28 F1500.0 E15 ;Draw the first line
G1 X-1.7 Y145.0 Z0.28 F5000.0 ;Move to side a little
G1 X-1.7 Y20 Z0.28 F1500.0 E30 ;Draw the second line
G92 E0 ;Reset Extruder
G1 E-1 F1800 ;Retract a bit
G1 Z2.0 F3000 ;Move Z Axis up
G1 E0 F1800
G92 E0
G92 E0
G1 F2400 E-0.8
;LAYER_COUNT:107
;LAYER:0
M107
G1 F300 Z0.4
G0 F9000 X83.791 Y104.638 Z0.4
;TYPE:SKIRT
G1 F300 Z0.2
G1 F2400 E0
G1 F6000 X84.253 Y104.267 E0.01971
G1 X85.802 Y103.227 E0.08176
G1 X88.033 Y101.664 E0.17236
G1 X90.242 Y100.021 E0.26393
G1 X92.374 Y98.343 E0.35417
G1 X94.452 Y96.606 E0.44425
G1 X96.508 Y94.788 E0.53553
G1 X98.497 Y92.927 E0.62613
G1 X100.759 Y90.676 E0.73227
G1 X101.968 Y89.441 E0.78975
G1 X102.64 Y88.839 E0.81976
G1 X103.087 Y88.483 E0.83876
G1 X103.667 Y88.072 E0.86241
G1 X104.499 Y87.568 E0.89476
G1 X105.276 Y87.181 E0.92363
G1 X105.553 Y87.059 E0.9337
G1 X106.205 Y86.813 E0.95688
G1 X106.955 Y86.581 E0.98299
G1 X107.275 Y86.498 E0.99398
G1 X107.96 Y86.357 E1.01724
G1 X108.792 Y86.235 E1.04521
G1 X109.719 Y86.175 E1.07611
G1 X110.051 Y86.171 E1.08715
G1 X110.769 Y86.203 E1.11106
G1 X111.488 Y86.275 E1.13509
G1 X112.388 Y86.431 E1.16547
G1 X112.983 Y86.573 E1.18582
G1 X113.256 Y86.656 E1.19531
G1 X114.209 Y86.988 E1.22887
G1 X114.526 Y87.117 E1.24026
G1 X115.166 Y87.423 E1.26385
G1 X115.804 Y87.773 E1.28805
G1 X116.037 Y87.914 E1.29711
G1 X116.503 Y88.22 E1.31565
G1 X116.749 Y88.398 E1.32575
G1 X117.461 Y88.972 E1.35617
G1 X118.006 Y89.477 E1.38088
G1 X118.734 Y90.232 E1.41577
G1 X120.708 Y92.222 E1.50899
G1 X122.66 Y94.084 E1.59872
G1 X124.679 Y95.901 E1.68906
G1 X126.795 Y97.701 E1.78146
G1 X128.89 Y99.384 E1.87084
G1 X131.045 Y101.015 E1.96073
G1 X133.287 Y102.617 E2.05238
G1 X135.772 Y104.286 E2.15194
G1 X136.213 Y104.642 E2.17079
G1 X136.595 Y105.064 E2.18972
G1 X136.874 Y105.486 E2.20655
G1 X137.135 Y106.061 E2.22755
G1 X137.281 Y106.611 E2.24648
G1 X137.336 Y107.113 E2.26327
G1 X137.35 Y107.569 E2.27845
G1 X137.35 Y112.074 E2.42829
G1 X137.34 Y112.795 E2.45227
G1 X137.28 Y113.393 E2.47226
G1 X137.134 Y113.941 E2.49112
G1 X136.903 Y114.461 E2.51005
G1 X136.593 Y114.938 E2.52897
G1 X136.21 Y115.363 E2.54799
G1 X135.778 Y115.711 E2.56645
G1 X134.343 Y116.679 E2.62402
G1 X132.074 Y118.269 E2.71617
G1 X129.861 Y119.915 E2.8079
G1 X127.73 Y121.594 E2.89814
G1 X125.655 Y123.328 E2.98808
G1 X123.6 Y125.146 E3.07933
G1 X121.602 Y127.014 E3.17031
G1 X119.361 Y129.248 E3.27555
G1 X118.059 Y130.58 E3.3375
G1 X117.356 Y131.212 E3.36895
G1 X116.909 Y131.568 E3.38795
G1 X116.329 Y131.979 E3.41159
G1 X115.597 Y132.423 E3.44007
G1 X114.907 Y132.782 E3.46594
G1 X114.201 Y133.091 E3.49157
G1 X113.884 Y133.206 E3.50279
G1 X113.031 Y133.471 E3.5325
G1 X112.709 Y133.554 E3.54356
G1 X111.816 Y133.731 E3.57383
G1 X111.075 Y133.825 E3.59868
G1 X110.277 Y133.876 E3.62527
G1 X109.945 Y133.88 E3.63632
G1 X109.227 Y133.848 E3.66022
G1 X108.508 Y133.776 E3.68426
G1 X107.617 Y133.622 E3.71433
G1 X107.003 Y133.475 E3.73533
G1 X106.732 Y133.393 E3.74475
G1 X105.774 Y133.058 E3.7785
G1 X105.486 Y132.942 E3.78883
G1 X104.939 Y132.684 E3.80894
G1 X104.192 Y132.278 E3.83722
G1 X103.687 Y131.965 E3.85698
G1 X103.183 Y131.603 E3.87762
G1 X102.552 Y131.093 E3.90461
G1 X101.982 Y130.566 E3.93043
G1 X101.136 Y129.688 E3.97098
G1 X99.168 Y127.702 E4.06397
G1 X97.222 Y125.847 E4.15339
G1 X95.173 Y124 E4.24514
G1 X93.106 Y122.243 E4.33537
G1 X90.976 Y120.532 E4.42624
G1 X88.806 Y118.888 E4.51679
G1 X86.571 Y117.291 E4.60815
G1 X84.223 Y115.709 E4.70232
G1 X83.781 Y115.352 E4.72122
G1 X83.401 Y114.929 E4.74013
G1 X83.093 Y114.452 E4.75901
G1 X82.862 Y113.931 E4.77797
G1 X82.717 Y113.381 E4.79689
G1 X82.66 Y112.842 E4.81492
G1 X82.651 Y112.509 E4.82599
G1 X82.65 Y107.905 E4.97912
G1 X82.66 Y107.204 E5.00244
G1 X82.72 Y106.607 E5.0224
G1 X82.866 Y106.057 E5.04133
G1 X83.068 Y105.594 E5.05813
G1 X83.37 Y105.112 E5.07704
G1 X83.791 Y104.638 E5.09813
G0 F9000 X84.042 Y104.949
G1 F6000 X84.476 Y104.599 E5.11667
G1 X86.032 Y103.555 E5.179
G1 X88.263 Y101.992 E5.2696
G1 X90.481 Y100.342 E5.36154
G1 X92.63 Y98.65 E5.45252
G1 X94.717 Y96.906 E5.54297
G1 X96.773 Y95.088 E5.63426
G1 X98.779 Y93.211 E5.72563
G1 X101.041 Y90.96 E5.83177
G1 X102.235 Y89.739 E5.88857
G1 X102.889 Y89.152 E5.9178
G1 X103.336 Y88.796 E5.9368
G1 X103.875 Y88.414 E5.95878
G1 X104.678 Y87.926 E5.99003
G1 X105.438 Y87.547 E6.01828
G1 X105.695 Y87.433 E6.02763
G1 X106.324 Y87.195 E6.05
G1 X107.055 Y86.968 E6.07545
G1 X107.356 Y86.89 E6.0858
G1 X108.018 Y86.753 E6.10828
G1 X108.85 Y86.631 E6.13625
G1 X109.724 Y86.575 E6.16538
G1 X110.034 Y86.571 E6.17569
G1 X110.729 Y86.601 E6.19883
G1 X111.448 Y86.673 E6.22286
G1 X112.295 Y86.82 E6.25145
G1 X112.867 Y86.956 E6.27101
G1 X113.125 Y87.034 E6.27997
G1 X114.059 Y87.359 E6.31287
G1 X114.354 Y87.478 E6.32345
G1 X114.974 Y87.774 E6.3463
G1 X115.598 Y88.116 E6.36996
G1 X115.817 Y88.248 E6.37847
G1 X116.269 Y88.545 E6.39646
G1 X116.498 Y88.71 E6.40584
G1 X117.189 Y89.266 E6.43534
G1 X117.718 Y89.755 E6.4593
G1 X118.45 Y90.514 E6.49438
G1 X120.424 Y92.504 E6.5876
G1 X122.392 Y94.381 E6.67806
G1 X124.42 Y96.206 E6.7688
G1 X126.536 Y98.006 E6.8612
G1 X128.649 Y99.703 E6.95134
G1 X130.812 Y101.34 E7.04156
G1 X133.064 Y102.949 E7.13361
G1 X135.523 Y104.599 E7.23211
G1 X135.919 Y104.913 E7.24891
G1 X136.261 Y105.285 E7.26572
G1 X136.54 Y105.707 E7.28255
G1 X136.749 Y106.167 E7.29935
G1 X136.883 Y106.655 E7.31618
G1 X136.938 Y107.157 E7.33298
G1 X136.95 Y107.58 E7.34706
G1 X136.95 Y112.068 E7.49633
G1 X136.94 Y112.789 E7.52031
G1 X136.893 Y113.293 E7.53715
G1 X136.767 Y113.782 E7.55394
G1 X136.566 Y114.246 E7.57076
G1 X136.294 Y114.673 E7.5876
G1 X135.959 Y115.051 E7.6044
G1 X135.527 Y115.399 E7.62285
G1 X134.113 Y116.351 E7.67954
G1 X131.844 Y117.941 E7.7717
G1 X129.622 Y119.594 E7.86381
G1 X127.482 Y121.28 E7.95442
G1 X125.39 Y123.028 E8.04509
G1 X123.335 Y124.846 E8.13635
G1 X121.329 Y126.722 E8.2277
G1 X119.075 Y128.968 E8.33353
G1 X117.773 Y130.3 E8.39548
G1 X117.107 Y130.899 E8.42528
G1 X116.66 Y131.255 E8.44428
G1 X116.121 Y131.637 E8.46626
G1 X115.412 Y132.068 E8.49385
G1 X114.722 Y132.427 E8.51972
G1 X114.064 Y132.715 E8.54361
G1 X113.765 Y132.824 E8.5542
G1 X112.93 Y133.084 E8.58328
G1 X112.631 Y133.162 E8.59356
G1 X111.766 Y133.334 E8.6229
G1 X111.025 Y133.428 E8.64774
G1 X110.272 Y133.476 E8.67283
G1 X109.962 Y133.48 E8.68315
G1 X109.267 Y133.45 E8.70628
G1 X108.548 Y133.378 E8.73032
G1 X107.701 Y133.231 E8.75891
G1 X107.449 Y133.177 E8.76748
G1 X107.119 Y133.092 E8.77882
G1 X106.864 Y133.015 E8.78768
G1 X105.923 Y132.687 E8.82082
G1 X105.656 Y132.58 E8.83039
G1 X105.13 Y132.333 E8.84971
G1 X104.403 Y131.938 E8.87723
G1 X103.898 Y131.625 E8.89699
G1 X103.434 Y131.292 E8.91599
G1 X102.823 Y130.799 E8.9421
G1 X102.27 Y130.288 E8.96715
G1 X101.424 Y129.41 E9.0077
G1 X99.452 Y127.42 E9.10088
G1 X97.498 Y125.557 E9.19067
G1 X95.441 Y123.703 E9.28278
G1 X93.357 Y121.931 E9.37376
G1 X91.227 Y120.22 E9.46463
G1 X89.048 Y118.569 E9.55556
G1 X86.804 Y116.966 E9.64728
G1 X84.472 Y115.396 E9.74079
G1 X84.076 Y115.082 E9.7576
G1 X83.735 Y114.709 E9.7744
G1 X83.457 Y114.287 E9.79121
G1 X83.248 Y113.826 E9.80805
G1 X83.115 Y113.338 E9.82487
G1 X83.06 Y112.831 E9.84183
G1 X83.051 Y112.509 E9.85255
G1 X83.05 Y107.911 E10.00548
G1 X83.06 Y107.21 E10.02879
G1 X83.107 Y106.707 E10.0456
G1 X83.233 Y106.217 E10.06242
G1 X83.435 Y105.754 E10.07923
G1 X83.707 Y105.327 E10.09606
G1 X84.042 Y104.949 E10.11286
G1 F2400 E9.31286
G1 F300 Z0.4
;MESH:Case-Clip.stl(1)
G0 F9000 X110.004 Y105.259 Z0.4
;TYPE:WALL-OUTER
G1 F300 Z0.2
G1 F2400 E10.11286
G1 F6000 X110.011 Y105.259 E10.1131
G1 X110.525 Y105.24 E10.1302
G1 X111.044 Y105.181 E10.14758
G1 X111.57 Y105.092 E10.16532
G1 X112.045 Y104.971 E10.18162
G1 X112.525 Y104.819 E10.19837
G1 X113.004 Y104.632 E10.21547
G1 X113.476 Y104.409 E10.23283
G1 X113.908 Y104.168 E10.24929
G1 X114.349 Y103.88 E10.26681
G1 X114.754 Y103.575 E10.28367
G1 X115.247 Y103.152 E10.30527
G1 X115.692 Y102.688 E10.32666
G1 X115.88 Y102.473 E10.33616
G1 X116.133 Y102.139 E10.35009
G1 X116.45 Y101.677 E10.36873
G1 X116.715 Y101.221 E10.38627
G1 X116.938 Y100.767 E10.40309
G1 X117.042 Y100.529 E10.41173
G1 X117.218 Y100.052 E10.42864
G1 X117.367 Y99.555 E10.4459
G1 X117.428 Y99.308 E10.45436
G1 X117.522 Y98.816 E10.47102
G1 X117.588 Y98.289 E10.48869
G1 X117.62 Y97.781 E10.50562
G1 X117.62 Y97.529 E10.514
G1 X117.596 Y97.012 E10.53121
G1 X117.538 Y96.498 E10.54842
G1 X117.448 Y95.997 E10.56535
G1 X117.39 Y95.751 E10.57375
G1 X117.242 Y95.228 E10.59183
G1 X116.972 Y94.536 E10.61654
G1 X116.707 Y93.975 E10.63717
G1 X116.36 Y93.402 E10.65945
G1 X116.072 Y92.998 E10.67596
G1 X115.749 Y92.6 E10.693
G1 X115.393 Y92.217 E10.7104
G1 X115.023 Y91.867 E10.72733
G1 X114.626 Y91.539 E10.74446
G1 X114.135 Y91.188 E10.76454
G1 X113.557 Y90.853 E10.78676
G1 X112.985 Y90.573 E10.80794
G1 X112.369 Y90.347 E10.82976
G1 X111.796 Y90.179 E10.84962
G1 X111.14 Y90.05 E10.87186
G1 X110.623 Y89.988 E10.88918
G1 X109.987 Y89.957 E10.91036
G1 X109.341 Y89.988 E10.93187
G1 X108.834 Y90.046 E10.94884
G1 X108.278 Y90.148 E10.96764
G1 X107.582 Y90.343 E10.99168
G1 X107.109 Y90.515 E11.00842
G1 X106.843 Y90.627 E11.01802
G1 X106.382 Y90.853 E11.0351
G1 X105.966 Y91.091 E11.05104
G1 X105.533 Y91.379 E11.06833
G1 X105.135 Y91.683 E11.08499
G1 X104.737 Y92.031 E11.10258
G1 X104.327 Y92.441 E11.12186
G1 X104.214 Y92.719 E11.13184
G1 X104.203 Y92.877 E11.13711
G1 X104.266 Y93.123 E11.14556
G1 X104.351 Y93.255 E11.15078
G1 X104.587 Y93.44 E11.16075
G1 X109.138 Y94.881 E11.31953
G1 X109.617 Y94.777 E11.33583
G1 X110.031 Y94.76 E11.34961
G1 X110.443 Y94.791 E11.36335
G1 X110.861 Y94.905 E11.37776
G1 X111.261 Y95.065 E11.39209
G1 X111.633 Y95.293 E11.4066
G1 X111.934 Y95.538 E11.41951
G1 X112.237 Y95.88 E11.43471
G1 X112.422 Y96.159 E11.44584
G1 X112.583 Y96.469 E11.45746
G1 X112.697 Y96.773 E11.46826
G1 X112.799 Y97.217 E11.48341
G1 X112.82 Y97.641 E11.49753
G1 X112.799 Y97.965 E11.50833
G1 X112.738 Y98.293 E11.51943
G1 X112.627 Y98.643 E11.53164
G1 X112.493 Y98.934 E11.54229
G1 X112.318 Y99.228 E11.55367
G1 X112.041 Y99.579 E11.56855
G1 X111.745 Y99.841 E11.58169
G1 X111.466 Y100.036 E11.59301
G1 X111.155 Y100.204 E11.60477
G1 X110.84 Y100.322 E11.61596
G1 X110.51 Y100.41 E11.62732
G1 X110.171 Y100.452 E11.63868
G1 X109.831 Y100.456 E11.64999
G1 X109.42 Y100.413 E11.66373
G1 X108.951 Y100.272 E11.68002
G1 X108.666 Y100.145 E11.6904
G1 X108.374 Y99.973 E11.70167
G1 X108.12 Y99.779 E11.7123
G1 X107.885 Y99.553 E11.72315
G1 X107.73 Y99.365 E11.73125
G1 X103.264 Y97.953 E11.88704
G1 X102.943 Y97.91 E11.89781
G1 X102.662 Y98.023 E11.90788
G1 X102.435 Y98.293 E11.91962
G1 X102.39 Y98.605 E11.9301
G1 X102.43 Y98.898 E11.93994
G1 X102.527 Y99.385 E11.95645
G1 X102.703 Y100.012 E11.97811
G1 X102.933 Y100.609 E11.99939
G1 X103.151 Y101.072 E12.01641
G1 X103.397 Y101.519 E12.03338
G1 X103.532 Y101.738 E12.04194
G1 X103.818 Y102.154 E12.05873
G1 X103.981 Y102.367 E12.06765
G1 X104.305 Y102.753 E12.08441
G1 X104.663 Y103.119 E12.10144
G1 X105.053 Y103.47 E12.11889
G1 X105.451 Y103.778 E12.13563
G1 X105.88 Y104.075 E12.15298
G1 X106.317 Y104.332 E12.16985
G1 X106.548 Y104.452 E12.1785
G1 X107.018 Y104.667 E12.19569
G1 X107.493 Y104.846 E12.21258
G1 X107.976 Y104.994 E12.22938
G1 X108.484 Y105.111 E12.24672
G1 X109.042 Y105.205 E12.26554
G1 X109.496 Y105.244 E12.28069
G1 X110.004 Y105.259 E12.2976
G0 F9000 X110.009 Y104.859
;TYPE:WALL-INNER
G1 F6000 X110.495 Y104.841 E12.31377
G1 X110.988 Y104.785 E12.33028
G1 X111.487 Y104.7 E12.34711
G1 X111.935 Y104.586 E12.36249
G1 X112.392 Y104.442 E12.37842
G1 X112.846 Y104.264 E12.39464
G1 X113.293 Y104.053 E12.41108
G1 X113.701 Y103.826 E12.42661
G1 X114.119 Y103.552 E12.44323
G1 X114.504 Y103.263 E12.45925
G1 X114.979 Y102.855 E12.48007
G1 X115.397 Y102.418 E12.50019
G1 X115.57 Y102.221 E12.50891
G1 X115.809 Y101.905 E12.52208
G1 X116.112 Y101.463 E12.53991
G1 X116.362 Y101.032 E12.55648
G1 X116.632 Y100.484 E12.5768
G1 X116.838 Y99.925 E12.59661
G1 X117.015 Y99.335 E12.6171
G1 X117.127 Y98.754 E12.63678
G1 X117.19 Y98.251 E12.65364
G1 X117.226 Y97.67 E12.673
G1 X117.197 Y97.044 E12.69385
G1 X117.142 Y96.556 E12.71018
G1 X117.038 Y95.979 E12.72968
G1 X116.862 Y95.356 E12.75121
G1 X116.604 Y94.694 E12.77484
G1 X116.354 Y94.165 E12.7943
G1 X116.026 Y93.622 E12.8154
G1 X115.754 Y93.24 E12.831
G1 X115.447 Y92.862 E12.8472
G1 X115.109 Y92.499 E12.86369
G1 X114.759 Y92.167 E12.87974
G1 X114.382 Y91.856 E12.89599
G1 X113.989 Y91.575 E12.91206
G1 X113.369 Y91.206 E12.93606
G1 X112.828 Y90.941 E12.9561
G1 X112.244 Y90.727 E12.97678
G1 X111.701 Y90.568 E12.9956
G1 X111.078 Y90.446 E13.01672
G1 X110.589 Y90.387 E13.0331
G1 X109.987 Y90.357 E13.05315
G1 X109.373 Y90.387 E13.07359
G1 X108.893 Y90.442 E13.08966
G1 X108.368 Y90.538 E13.10741
G1 X107.704 Y90.724 E13.13035
G1 X107.255 Y90.887 E13.14623
G1 X107.009 Y90.991 E13.15512
G1 X106.57 Y91.207 E13.17139
G1 X106.176 Y91.431 E13.18646
G1 X105.765 Y91.705 E13.20289
G1 X105.389 Y91.993 E13.21865
G1 X105.01 Y92.323 E13.23536
G1 X104.667 Y92.667 E13.25152
G1 X104.607 Y92.84 E13.25761
G1 X104.637 Y92.961 E13.26176
G1 X104.777 Y93.08 E13.26787
G1 X109.157 Y94.467 E13.42068
G1 X109.571 Y94.379 E13.43475
G1 X110.06 Y94.361 E13.45103
G1 X110.52 Y94.398 E13.46638
G1 X110.995 Y94.528 E13.48276
G1 X111.457 Y94.716 E13.49935
G1 X111.83 Y94.943 E13.51387
G1 X112.209 Y95.248 E13.53005
G1 X112.526 Y95.601 E13.54583
G1 X112.777 Y95.975 E13.56081
G1 X112.943 Y96.295 E13.5728
G1 X113.073 Y96.635 E13.58491
G1 X113.191 Y97.133 E13.60193
G1 X113.22 Y97.667 E13.61972
G1 X113.196 Y98.015 E13.63132
G1 X113.124 Y98.397 E13.64425
G1 X113.008 Y98.768 E13.65718
G1 X112.86 Y99.097 E13.66918
G1 X112.678 Y99.409 E13.68119
G1 X112.33 Y99.856 E13.70003
G1 X111.985 Y100.161 E13.71535
G1 X111.685 Y100.371 E13.72753
G1 X111.34 Y100.559 E13.74059
G1 X110.97 Y100.701 E13.75378
G1 X110.614 Y100.797 E13.76604
G1 X110.236 Y100.849 E13.77873
G1 X109.829 Y100.856 E13.79227
G1 X109.36 Y100.808 E13.80795
G1 X108.855 Y100.662 E13.82543
G1 X108.517 Y100.518 E13.83765
G1 X108.122 Y100.285 E13.85291
G1 X107.865 Y100.087 E13.8637
G1 X107.607 Y99.841 E13.87555
G1 X107.496 Y99.71 E13.88126
G1 X103.177 Y98.345 E14.03192
G1 X102.995 Y98.32 E14.03803
G1 X102.904 Y98.357 E14.0413
G1 X102.815 Y98.463 E14.0459
G1 X102.788 Y98.646 E14.05205
G1 X102.911 Y99.267 E14.07311
G1 X103.083 Y99.886 E14.09448
G1 X103.301 Y100.451 E14.11462
G1 X103.507 Y100.89 E14.13075
G1 X103.802 Y101.424 E14.15104
G1 X104.212 Y102.02 E14.1751
G1 X104.602 Y102.484 E14.19526
G1 X104.94 Y102.83 E14.21135
G1 X105.309 Y103.163 E14.22788
G1 X105.687 Y103.455 E14.24376
G1 X106.096 Y103.738 E14.26031
G1 X106.612 Y104.041 E14.28021
G1 X107.172 Y104.297 E14.30069
G1 X107.623 Y104.467 E14.31672
G1 X108.08 Y104.608 E14.33263
G1 X108.562 Y104.719 E14.34908
G1 X109.092 Y104.808 E14.36695
G1 X109.519 Y104.844 E14.3812
G1 X110.009 Y104.859 E14.39751
G0 F9000 X110.008 Y104.459
G1 F6000 X110.465 Y104.442 E14.41272
G1 X110.932 Y104.389 E14.42835
G1 X111.404 Y104.309 E14.44427
G1 X111.825 Y104.202 E14.45872
G1 X112.258 Y104.064 E14.47384
G1 X112.737 Y103.874 E14.49098
G1 X113.11 Y103.697 E14.50471
G1 X113.493 Y103.484 E14.51928
G1 X113.889 Y103.225 E14.53502
G1 X114.253 Y102.951 E14.55018
G1 X114.695 Y102.571 E14.56956
G1 X115.199 Y102.047 E14.59374
G1 X115.484 Y101.671 E14.60944
G1 X115.774 Y101.249 E14.62647
G1 X116.009 Y100.843 E14.64207
G1 X116.264 Y100.325 E14.66127
G1 X116.459 Y99.799 E14.67993
G1 X116.627 Y99.236 E14.69947
G1 X116.731 Y98.691 E14.71793
G1 X116.791 Y98.214 E14.73392
G1 X116.825 Y97.67 E14.75205
G1 X116.799 Y97.076 E14.77182
